#define 1526826606a_bmp_width 64
#define 1526826606a_bmp_height 64
static unsigned char 1526826606a_bmp_bits[] = {
   0x80, 0xff, 0xff, 0xff, 0xff, 0xff, 0xff, 0x01, 0xe0, 0xff, 0xff, 0xff,
   0xff, 0xff, 0xff, 0x07, 0xf8, 0x00, 0x00, 0x00, 0x00, 0x00, 0x00, 0x1f,
   0x3c, 0x00, 0x00, 0x00, 0x00, 0x00, 0x00, 0x3c, 0x1c, 0x00, 0x00, 0x00,
   0x00, 0x00, 0x00, 0x38, 0x0e, 0x00, 0x00, 0x00, 0x00, 0x00, 0x00, 0x70,
   0x06, 0xe0, 0x0f, 0x00, 0x00, 0x80, 0xe7, 0x61, 0x07, 0xfc, 0x3f, 0x00,
   0x00, 0x80, 0xf7, 0xe3, 0x03, 0xfe, 0xff, 0x00, 0x00, 0xc0, 0x18, 0xc3,
   0x03, 0xff, 0xff, 0x03, 0x00, 0xc0, 0x18, 0xc2, 0x83, 0xff, 0xff, 0x07,
   0x00, 0xc0, 0x18, 0xc2, 0x83, 0xff, 0xff, 0x1f, 0x00, 0xc0, 0x1c, 0xc3,
   0xc3, 0xff, 0xff, 0x3f, 0x00, 0x80, 0xef, 0xc3, 0xc3, 0xff, 0xff, 0x7f,
   0x00, 0x00, 0xe7, 0xc3, 0xc3, 0xff, 0xff, 0xff, 0x00, 0x00, 0x00, 0xc0,
   0xc3, 0xff, 0xff, 0xff, 0x01, 0x00, 0x00, 0xc0, 0xc3, 0xff, 0xff, 0xff,
   0x03, 0x80, 0xe7, 0xc1, 0xc3, 0xff, 0xff, 0xff, 0x07, 0x80, 0xf7, 0xc3,
   0x83, 0xff, 0xff, 0xff, 0x0f, 0xc0, 0x18, 0xc3, 0x83, 0xff, 0xff, 0xff,
   0x1f, 0xc0, 0x18, 0xc2, 0x03, 0xff, 0xff, 0xff, 0x3f, 0xc0, 0x18, 0xc2,
   0x03, 0xff, 0xff, 0xff, 0x7f, 0xc0, 0x1c, 0xc3, 0x03, 0xfe, 0xff, 0xff,
   0xff, 0x80, 0xef, 0xc3, 0x03, 0xfc, 0xff, 0xff, 0xff, 0x01, 0xe7, 0xc3,
   0x03, 0xf0, 0xff, 0xff, 0xff, 0x03, 0x00, 0xc0, 0x03, 0xf0, 0xff, 0xff,
   0xff, 0x07, 0x00, 0xc0, 0x03, 0xf8, 0xff, 0xff, 0xff, 0x83, 0xef, 0xc3,
   0x03, 0xfc, 0xff, 0xff, 0xff, 0x81, 0x01, 0xc3, 0x03, 0xfe, 0xff, 0xff,
   0xff, 0x80, 0x7e, 0xc3, 0x03, 0xff, 0xff, 0xff, 0x7f, 0x80, 0x7e, 0xc3,
   0x83, 0xff, 0xff, 0xff, 0x3f, 0x80, 0x18, 0xc3, 0x83, 0xff, 0xff, 0xff,
   0x1f, 0x80, 0x19, 0xc3, 0x83, 0xff, 0xff, 0xff, 0x0f, 0x80, 0xff, 0xc3,
   0xc3, 0xff, 0xff, 0xff, 0x07, 0x80, 0x00, 0xc3, 0xc3, 0xff, 0xff, 0xff,
   0x03, 0x80, 0x00, 0xc2, 0xc3, 0xff, 0xff, 0xff, 0x01, 0x00, 0x00, 0xc0,
   0xc3, 0xff, 0xff, 0xff, 0x00, 0x80, 0x00, 0xc2, 0xc3, 0xff, 0xff, 0x7f,
   0x00, 0x80, 0x00, 0xc3, 0xc3, 0xff, 0xff, 0x1f, 0x00, 0x80, 0xff, 0xc3,
   0x83, 0xff, 0xff, 0x0f, 0x00, 0x80, 0xff, 0xc3, 0x83, 0xff, 0xff, 0x07,
   0x00, 0x80, 0x18, 0xc2, 0x03, 0xff, 0xff, 0x01, 0x00, 0x80, 0x18, 0xc2,
   0x03, 0xfe, 0xff, 0x00, 0x00, 0x80, 0x18, 0xc2, 0x03, 0xf8, 0x3f, 0x00,
   0x00, 0x80, 0x18, 0xc2, 0x03, 0xc0, 0x03, 0x00, 0x80, 0x8f, 0xff, 0xc3,
   0x03, 0x00, 0x00, 0x00, 0xc0, 0x8f, 0xff, 0xc3, 0x03, 0x20, 0x20, 0x00,
   0xf8, 0x8f, 0x00, 0xc2, 0x03, 0xf0, 0x30, 0x00, 0xfe, 0x8f, 0x00, 0xc2,
   0x03, 0xf1, 0x7f, 0xe0, 0xff, 0x0f, 0x00, 0xc0, 0x83, 0xff, 0xff, 0xff,
   0xff, 0x8f, 0xe7, 0xc0, 0xc3, 0xff, 0xff, 0xff, 0xff, 0x8f, 0xcf, 0xc1,
   0xc3, 0xff, 0xff, 0xff, 0xff, 0x8f, 0x01, 0xc3, 0x83, 0xff, 0xff, 0xff,
   0xff, 0xcf, 0x00, 0xc2, 0x03, 0xf0, 0x7f, 0xc0, 0xff, 0xcf, 0x00, 0xc2,
   0x03, 0xf0, 0x30, 0x00, 0xfe, 0xc7, 0x00, 0xc3, 0x03, 0x30, 0x20, 0x00,
   0xf8, 0x87, 0x01, 0xc3, 0x07, 0x00, 0x00, 0x00, 0xc0, 0x07, 0xff, 0xe1,
   0x06, 0x00, 0x00, 0x00, 0x80, 0x07, 0xfe, 0x60, 0x0e, 0x00, 0x00, 0x00,
   0x00, 0x00, 0x00, 0x70, 0x1c, 0x00, 0x00, 0x00, 0x00, 0x00, 0x00, 0x38,
   0x3c, 0x00, 0x00, 0x00, 0x00, 0x00, 0x00, 0x3c, 0xf8, 0x00, 0x00, 0x00,
   0x00, 0x00, 0x00, 0x1f, 0xe0, 0xff, 0xff, 0xff, 0xff, 0xff, 0xff, 0x07,
   0x80, 0xff, 0xff, 0xff, 0xff, 0xff, 0xff, 0x01 };
