#define 1526826606b_bmp_width 128
#define 1526826606b_bmp_height 64
static unsigned char 1526826606b_bmp_bits[] = {
   0x00, 0xc0, 0xff, 0xff, 0xff, 0xff, 0xff, 0xff, 0xff, 0xff, 0xff, 0xff,
   0xff, 0xff, 0x03, 0x00, 0x00, 0xfe, 0xff, 0xff, 0xff, 0xff, 0xff, 0xff,
   0xff, 0xff, 0xff, 0xff, 0xff, 0xff, 0x7f, 0x00, 0x80, 0xff, 0x00, 0x00,
   0x00, 0x00, 0x00, 0x00, 0x00, 0x00, 0x00, 0x00, 0x00, 0x00, 0xff, 0x01,
   0xe0, 0x0f, 0x00, 0x00, 0x00, 0x00, 0x00, 0x00, 0x00, 0x00, 0x00, 0x00,
   0x00, 0x00, 0xf0, 0x0f, 0xf8, 0x03, 0x00, 0x00, 0x00, 0x00, 0x00, 0x00,
   0x00, 0x00, 0x00, 0x00, 0x00, 0x00, 0xc0, 0x1f, 0xfc, 0x00, 0x00, 0x00,
   0x00, 0x00, 0x00, 0x00, 0x00, 0x00, 0x00, 0x00, 0x00, 0x00, 0x00, 0x3f,
   0x3e, 0x00, 0x00, 0x0f, 0x00, 0x00, 0xfc, 0x3f, 0x00, 0x00, 0x00, 0xf0,
   0xff, 0x00, 0x00, 0x7c, 0x3f, 0x00, 0xc0, 0x3f, 0x00, 0xc0, 0xff, 0xff,
   0x0f, 0x00, 0x00, 0xff, 0xff, 0x0f, 0x00, 0xfc, 0x0f, 0x00, 0xc0, 0xff,
   0x00, 0xf0, 0xff, 0xff, 0x3f, 0x00, 0xf0, 0xff, 0xff, 0x3f, 0x00, 0xf0,
   0x0f, 0x00, 0xc0, 0x3f, 0x00, 0xfc, 0xff, 0xff, 0xff, 0x00, 0xfc, 0xff,
   0xff, 0xff, 0x00, 0xf0, 0x0f, 0x00, 0xc0, 0x3f, 0x00, 0xfc, 0xff, 0xff,
   0xff, 0x03, 0xff, 0xff, 0xff, 0xff, 0x03, 0xf0, 0x0f, 0x00, 0xc0, 0x3f,
   0x00, 0xff, 0xff, 0xff, 0xff, 0x0f, 0xff, 0xff, 0xff, 0xff, 0x03, 0xf0,
   0x0f, 0x00, 0xff, 0xff, 0x03, 0xff, 0xff, 0xff, 0xff, 0xff, 0xff, 0xff,
   0xff, 0xff, 0x03, 0xf0, 0x0f, 0x00, 0xff, 0xff, 0x0f, 0xff, 0xff, 0xff,
   0xff, 0xff, 0xff, 0xff, 0xff, 0xff, 0x0f, 0xf0, 0x0f, 0x00, 0xfc, 0xff,
   0xc3, 0xff, 0xff, 0xff, 0xff, 0xff, 0xff, 0xff, 0xff, 0xff, 0x0f, 0xf0,
   0x0f, 0x00, 0xfc, 0xff, 0xc3, 0xff, 0xff, 0xff, 0xff, 0xff, 0xff, 0xff,
   0xff, 0xff, 0x0f, 0xf0, 0x0f, 0x00, 0xf0, 0xff, 0xc0, 0xff, 0xff, 0xff,
   0xff, 0xff, 0xff, 0xff, 0xff, 0xff, 0x0f, 0xf0, 0x0f, 0x00, 0xf0, 0xff,
   0xc0, 0xff, 0xff, 0xff, 0xff, 0xff, 0xff, 0xff, 0xff, 0xff, 0x0f, 0xf0,
   0x0f, 0x00, 0xf0, 0xff, 0x00, 0xff, 0xff, 0xff, 0xff, 0xff, 0xff, 0xff,
   0xff, 0xff, 0x0f, 0xf0, 0x0f, 0x00, 0xf0, 0xff, 0x00, 0xff, 0xff, 0xff,
   0xff, 0xff, 0xff, 0xff, 0xff, 0xff, 0x0f, 0xf0, 0x0f, 0x00, 0xfc, 0xff,
   0x03, 0xff, 0xff, 0xff, 0xff, 0xff, 0xff, 0xff, 0xff, 0xff, 0x03, 0xf0,
   0x0f, 0x00, 0xff, 0xff, 0x0f, 0xff, 0xff, 0xff, 0xff, 0xff, 0xff, 0xff,
   0xff, 0xff, 0x03, 0xf0, 0x0f, 0x00, 0xf0, 0xff, 0x00, 0xfc, 0xff, 0xff,
   0xff, 0xff, 0xff, 0xff, 0xff, 0xff, 0x00, 0xf0, 0x0f, 0x00, 0xc0, 0x3f,
   0x00, 0xfc, 0xff, 0xff, 0xff, 0xff, 0xff, 0xff, 0xff, 0xff, 0x00, 0xf0,
   0x0f, 0x00, 0xc0, 0x3f, 0x00, 0xf0, 0xff, 0xff, 0xff, 0xff, 0xff, 0xff,
   0xff, 0x3f, 0x00, 0xf0, 0x0f, 0x00, 0xc0, 0x3f, 0x00, 0xc0, 0xff, 0xff,
   0xff, 0xff, 0xff, 0xff, 0xff, 0x3f, 0x00, 0xf0, 0x0f, 0x00, 0xc0, 0x3f,
   0x00, 0xc0, 0xff, 0xff, 0xff, 0xff, 0xff, 0xff, 0xff, 0x0f, 0x00, 0xf0,
   0x0f, 0x00, 0xc0, 0x3f, 0x00, 0x00, 0xff, 0xff, 0xff, 0xff, 0xff, 0xff,
   0xff, 0x03, 0x00, 0xf0, 0x0f, 0x00, 0xc0, 0x3f, 0x00, 0x00, 0xfc, 0xff,
   0xff, 0xff, 0xff, 0xff, 0xff, 0x03, 0x00, 0xf0, 0x0f, 0x00, 0xc0, 0xff,
   0x00, 0x00, 0xf0, 0xff, 0xff, 0xff, 0xff, 0xff, 0xff, 0x00, 0x00, 0xf0,
   0x0f, 0x00, 0xf0, 0xff, 0x00, 0x00, 0xf0, 0xff, 0xff, 0xff, 0xff, 0xff,
   0x3f, 0x00, 0x00, 0xf0, 0x0f, 0x00, 0xf0, 0xff, 0x00, 0x00, 0xc0, 0xff,
   0xff, 0xff, 0xff, 0xff, 0x0f, 0x00, 0x00, 0xf0, 0x0f, 0x00, 0xf0, 0xff,
   0x00, 0x00, 0x00, 0xff, 0xff, 0xff, 0xff, 0xff, 0x03, 0x00, 0x00, 0xf0,
   0x0f, 0x00, 0xfc, 0xff, 0x03, 0x00, 0x00, 0xfc, 0xff, 0xff, 0xff, 0xff,
   0x00, 0x00, 0x00, 0xf0, 0x0f, 0x00, 0xfc, 0xff, 0x03, 0x00, 0x00, 0xf0,
   0xff, 0xff, 0xff, 0x3f, 0x00, 0x00, 0x00, 0xf0, 0x0f, 0x00, 0xff, 0xff,
   0x0f, 0x00, 0x00, 0xc0, 0xff, 0xff, 0xff, 0x0f, 0x00, 0x00, 0x00, 0xf0,
   0x0f, 0x00, 0xff, 0xff, 0x0f, 0x00, 0x00, 0x00, 0xff, 0xff, 0xff, 0x03,
   0x00, 0x00, 0x00, 0xf0, 0x0f, 0x00, 0xff, 0xff, 0x0f, 0x00, 0x00, 0x00,
   0xfc, 0xff, 0xff, 0x00, 0x00, 0x00, 0x00, 0xf0, 0x0f, 0xc0, 0xff, 0xff,
   0x3f, 0x00, 0x00, 0x00, 0xf0, 0xff, 0x3f, 0x00, 0x00, 0x00, 0x00, 0xf0,
   0x0f, 0xf0, 0xff, 0xff, 0xff, 0x00, 0x00, 0x00, 0xc0, 0xff, 0x0f, 0x00,
   0x00, 0x00, 0x00, 0xf0, 0x0f, 0xf0, 0xff, 0xff, 0xff, 0x00, 0x00, 0x00,
   0x00, 0xff, 0x03, 0x00, 0x00, 0x00, 0x00, 0xf0, 0x0f, 0xf0, 0xff, 0xff,
   0xff, 0x00, 0x00, 0x00, 0x00, 0xfc, 0x00, 0x00, 0x00, 0x00, 0x00, 0xf0,
   0x0f, 0xf0, 0xff, 0xff, 0xff, 0x00, 0x00, 0x00, 0x00, 0x30, 0x00, 0x00,
   0x00, 0x00, 0x00, 0xf0, 0x0f, 0x00, 0xf0, 0xff, 0xff, 0x00, 0x00, 0x00,
   0x00, 0x00, 0x00, 0x00, 0x00, 0x00, 0x00, 0xf0, 0x0f, 0x00, 0x00, 0x00,
   0x00, 0x00, 0x00, 0x00, 0x00, 0x00, 0x00, 0x00, 0x00, 0x00, 0x00, 0xf0,
   0x0f, 0x00, 0x00, 0x00, 0x00, 0x00, 0x00, 0x00, 0x00, 0x00, 0x00, 0x00,
   0x00, 0x00, 0x00, 0xf0, 0x0f, 0x00, 0xfc, 0x00, 0x00, 0x00, 0x00, 0x00,
   0x00, 0x00, 0xf0, 0x0f, 0x00, 0xff, 0x00, 0xf0, 0x0f, 0x00, 0xff, 0x3f,
   0xff, 0xff, 0xff, 0xfc, 0xff, 0x0f, 0xfc, 0xff, 0xc0, 0xff, 0x0f, 0xf0,
   0x0f, 0xc0, 0x03, 0x3f, 0xf0, 0x00, 0x0f, 0xc0, 0x03, 0x0f, 0x0f, 0xf0,
   0xf0, 0x00, 0x0f, 0xf0, 0x0f, 0xf0, 0x00, 0x3c, 0xf0, 0x00, 0x0f, 0xc0,
   0xf0, 0x0c, 0x0f, 0xf0, 0xf0, 0x00, 0x0f, 0xf0, 0x0f, 0xf0, 0x00, 0x3c,
   0xf0, 0x00, 0x0f, 0xc0, 0xf0, 0x0c, 0x3f, 0xf0, 0xf0, 0x03, 0x0f, 0xf0,
   0x0f, 0xf0, 0x00, 0x0c, 0xf0, 0xff, 0x0f, 0xc0, 0xff, 0x0c, 0xfc, 0x0f,
   0xc0, 0xff, 0x00, 0xf0, 0x0f, 0xf0, 0x00, 0x00, 0xf0, 0xff, 0x0f, 0xc0,
   0xff, 0x00, 0xf0, 0x3f, 0x00, 0xff, 0x03, 0xf0, 0x0f, 0xf0, 0x00, 0x30,
   0xf0, 0x00, 0x0f, 0xc0, 0xf0, 0x0c, 0x0f, 0xf0, 0xf0, 0x00, 0x0f, 0xf0,
   0x0f, 0xf0, 0x00, 0x3c, 0xf0, 0x00, 0x0f, 0xc0, 0xf0, 0x0c, 0x0f, 0xf0,
   0xf0, 0x00, 0x0f, 0xf0, 0x0f, 0xf0, 0x00, 0x3c, 0xf0, 0x00, 0x0f, 0xc0,
   0x00, 0x0c, 0x0f, 0xf0, 0xf0, 0x00, 0x0f, 0xf0, 0x3f, 0xc0, 0x0f, 0x0f,
   0xf0, 0x00, 0x3f, 0xf0, 0xff, 0x0f, 0x3f, 0xfc, 0xf0, 0xc3, 0x0f, 0xfc,
   0x3e, 0x00, 0xff, 0x03, 0xff, 0xff, 0xff, 0xfc, 0xff, 0x0f, 0xff, 0x3f,
   0xf0, 0xff, 0x03, 0x7c, 0xfc, 0x00, 0x00, 0x00, 0x00, 0x00, 0x00, 0x00,
   0x00, 0x00, 0x00, 0x00, 0x00, 0x00, 0x00, 0x3f, 0xf8, 0x03, 0x00, 0x00,
   0x00, 0x00, 0x00, 0x00, 0x00, 0x00, 0x00, 0x00, 0x00, 0x00, 0xc0, 0x1f,
   0xe0, 0x0f, 0x00, 0x00, 0x00, 0x00, 0x00, 0x00, 0x00, 0x00, 0x00, 0x00,
   0x00, 0x00, 0xf0, 0x07, 0x80, 0xff, 0x00, 0x00, 0x00, 0x00, 0x00, 0x00,
   0x00, 0x00, 0x00, 0x00, 0x00, 0x00, 0xff, 0x01, 0x00, 0xfe, 0xff, 0xff,
   0xff, 0xff, 0xff, 0xff, 0xff, 0xff, 0xff, 0xff, 0xff, 0xff, 0x7f, 0x00,
   0x00, 0xc0, 0xff, 0xff, 0xff, 0xff, 0xff, 0xff, 0xff, 0xff, 0xff, 0xff,
   0xff, 0xff, 0x03, 0x00 };
