#define batman_bmp_width 128
#define batman_bmp_height 64
static unsigned char batman_bmp_bits[] = {
   0xff, 0xff, 0xff, 0xff, 0xff, 0xff, 0xff, 0xff, 0xff, 0xff, 0xff, 0xff,
   0xff, 0xff, 0xff, 0xff, 0xff, 0xff, 0xff, 0xff, 0xff, 0xff, 0x07, 0x00,
   0x00, 0xf8, 0xff, 0xff, 0xff, 0xff, 0xff, 0xff, 0xff, 0xff, 0xff, 0xff,
   0xff, 0x1f, 0x00, 0x00, 0x00, 0x00, 0xfc, 0xff, 0xff, 0xff, 0xff, 0xff,
   0xff, 0xff, 0xff, 0xff, 0x7f, 0x00, 0x00, 0x00, 0x00, 0x00, 0x80, 0xff,
   0xff, 0xff, 0xff, 0xff, 0xff, 0xff, 0xff, 0xff, 0x07, 0x00, 0xfc, 0xff,
   0xff, 0x0f, 0x00, 0xf8, 0xff, 0xff, 0xff, 0xff, 0xff, 0xff, 0xff, 0xff,
   0x00, 0xf8, 0xff, 0xff, 0xff, 0xff, 0x07, 0x80, 0xff, 0xff, 0xff, 0xff,
   0xff, 0xff, 0xff, 0x0f, 0xc0, 0xff, 0xff, 0xff, 0xff, 0xff, 0xff, 0x00,
   0xfc, 0xff, 0xff, 0xff, 0xff, 0xff, 0xff, 0x03, 0xf8, 0xff, 0xff, 0xff,
   0xff, 0xff, 0xff, 0x07, 0xf0, 0xff, 0xff, 0xff, 0xff, 0xff, 0xff, 0x00,
   0x7f, 0xf8, 0xff, 0xfe, 0xbf, 0xff, 0x8f, 0x3f, 0xc0, 0xff, 0xff, 0xff,
   0xff, 0xff, 0x3f, 0xe0, 0x07, 0xfc, 0xff, 0xfc, 0x9f, 0xff, 0x1f, 0xf8,
   0x01, 0xfe, 0xff, 0xff, 0xff, 0xff, 0x0f, 0xfc, 0x00, 0xfc, 0x7f, 0xf8,
   0x0f, 0xff, 0x1f, 0xc0, 0x0f, 0xf8, 0xff, 0xff, 0xff, 0xff, 0x03, 0x1f,
   0x00, 0xfe, 0x7f, 0x00, 0x00, 0xff, 0x3f, 0x00, 0x3e, 0xf0, 0xff, 0xff,
   0xff, 0xff, 0xc0, 0x07, 0x00, 0xfe, 0x7f, 0x00, 0x00, 0xff, 0x3f, 0x00,
   0xf8, 0xc0, 0xff, 0xff, 0xff, 0x7f, 0xf0, 0x01, 0x00, 0xff, 0x7f, 0x00,
   0x00, 0xff, 0x7f, 0x00, 0xe0, 0x83, 0xff, 0xff, 0xff, 0x3f, 0x78, 0x00,
   0x00, 0xff, 0x7f, 0x00, 0x00, 0xff, 0x7f, 0x00, 0x80, 0x0f, 0xfe, 0xff,
   0xff, 0x0f, 0x1e, 0x00, 0x80, 0xff, 0x7f, 0x00, 0x00, 0xff, 0xff, 0x00,
   0x00, 0x1e, 0xfc, 0xff, 0xff, 0x07, 0x07, 0x00, 0x80, 0xff, 0x7f, 0x00,
   0x00, 0xff, 0xff, 0x00, 0x00, 0x78, 0xf8, 0xff, 0xff, 0x83, 0x03, 0x00,
   0x80, 0xff, 0x7f, 0x00, 0x00, 0xff, 0xff, 0x00, 0x00, 0xf0, 0xf0, 0xff,
   0xff, 0xe1, 0x01, 0x00, 0x80, 0xff, 0x3f, 0x00, 0x00, 0xfe, 0xff, 0x00,
   0x00, 0xc0, 0xe1, 0xff, 0xff, 0x70, 0x00, 0x00, 0x80, 0xff, 0x3f, 0x00,
   0x00, 0xfe, 0xff, 0x00, 0x00, 0x80, 0xc3, 0xff, 0x7f, 0x38, 0x00, 0x00,
   0x80, 0xff, 0x3f, 0x00, 0x00, 0xfe, 0xff, 0x00, 0x00, 0x00, 0x87, 0xff,
   0x3f, 0x1c, 0x00, 0x00, 0x80, 0xff, 0x3f, 0x00, 0x00, 0xfe, 0xff, 0x00,
   0x00, 0x00, 0x0e, 0xff, 0x3f, 0x1c, 0x00, 0x00, 0x80, 0xff, 0x3f, 0x00,
   0x00, 0xfe, 0xff, 0x00, 0x00, 0x00, 0x0c, 0xff, 0x1f, 0x0e, 0x00, 0x00,
   0x00, 0xff, 0x1f, 0x00, 0x00, 0xfc, 0x7f, 0x00, 0x00, 0x00, 0x1c, 0xfe,
   0x1f, 0x07, 0x00, 0x00, 0x00, 0xfe, 0x1f, 0x00, 0x00, 0xfc, 0x3f, 0x00,
   0x00, 0x00, 0x38, 0xfe, 0x0f, 0x07, 0x00, 0x00, 0x00, 0xfe, 0x0f, 0x00,
   0x00, 0xf8, 0x3f, 0x00, 0x00, 0x00, 0x30, 0xfc, 0x8f, 0x03, 0x00, 0x00,
   0x00, 0xf8, 0x07, 0x00, 0x00, 0xf0, 0x0f, 0x00, 0x00, 0x00, 0x70, 0xfc,
   0x8f, 0x03, 0x00, 0x00, 0x00, 0xf0, 0x01, 0x00, 0x00, 0xc0, 0x03, 0x00,
   0x00, 0x00, 0x70, 0xf8, 0x87, 0x01, 0x00, 0x00, 0x00, 0x00, 0x00, 0x00,
   0x00, 0x00, 0x00, 0x00, 0x00, 0x00, 0x60, 0xf8, 0x87, 0x01, 0x00, 0x00,
   0x00, 0x00, 0x00, 0x00, 0x00, 0x00, 0x00, 0x00, 0x00, 0x00, 0xe0, 0xf8,
   0xc7, 0x01, 0x00, 0x00, 0x00, 0x00, 0x00, 0x00, 0x00, 0x00, 0x00, 0x00,
   0x00, 0x00, 0xe0, 0xf8, 0xc7, 0x01, 0x00, 0x00, 0x00, 0x00, 0x00, 0x00,
   0x00, 0x00, 0x00, 0x00, 0x00, 0x00, 0xe0, 0xf8, 0xc7, 0x01, 0x00, 0x00,
   0x00, 0x00, 0x00, 0x00, 0x00, 0x00, 0x00, 0x00, 0x00, 0x00, 0xe0, 0xf8,
   0x87, 0x01, 0x00, 0x00, 0x00, 0x00, 0x00, 0x00, 0x00, 0x00, 0x00, 0x00,
   0x00, 0x00, 0xe0, 0xf8, 0x87, 0x01, 0x00, 0x00, 0x00, 0x00, 0x00, 0x00,
   0x00, 0x00, 0x00, 0x00, 0x00, 0x00, 0xe0, 0xf8, 0x87, 0x01, 0x00, 0x00,
   0x00, 0x00, 0x00, 0x00, 0x00, 0x00, 0x00, 0x00, 0x00, 0x00, 0x60, 0xf8,
   0x8f, 0x03, 0x00, 0x00, 0x00, 0x00, 0x00, 0x00, 0x00, 0x00, 0x00, 0x00,
   0x00, 0x00, 0x70, 0xf8, 0x8f, 0x03, 0x00, 0x00, 0x00, 0x00, 0x00, 0x00,
   0x00, 0x00, 0x00, 0x00, 0x00, 0x00, 0x70, 0xfc, 0x0f, 0x07, 0x00, 0x00,
   0x00, 0x00, 0x00, 0x00, 0x00, 0x00, 0x00, 0x00, 0x00, 0x00, 0x30, 0xfc,
   0x1f, 0x07, 0x00, 0x00, 0x00, 0x00, 0x00, 0x00, 0x00, 0x00, 0x00, 0x00,
   0x00, 0x00, 0x38, 0xfe, 0x1f, 0x0e, 0x00, 0x00, 0x00, 0x00, 0x00, 0x00,
   0x00, 0x00, 0x00, 0x00, 0x00, 0x00, 0x1c, 0xfe, 0x3f, 0x1c, 0x00, 0x00,
   0x00, 0x00, 0x00, 0x00, 0x00, 0x00, 0x00, 0x00, 0x00, 0x00, 0x0c, 0xff,
   0x3f, 0x1c, 0x00, 0x80, 0x1f, 0x00, 0x00, 0x00, 0x00, 0x00, 0x00, 0xfc,
   0x00, 0x00, 0x0e, 0xff, 0x7f, 0x78, 0x00, 0xe0, 0x7f, 0x00, 0x00, 0x00,
   0x00, 0x00, 0x00, 0xff, 0x03, 0x00, 0x87, 0xff, 0xff, 0xf0, 0x00, 0xf0,
   0xff, 0x01, 0x38, 0x00, 0x00, 0x0c, 0xc0, 0xff, 0x07, 0x80, 0xc3, 0xff,
   0xff, 0xe1, 0x01, 0xf0, 0xff, 0x03, 0xfe, 0x00, 0x80, 0x3f, 0xe0, 0xff,
   0x07, 0xe0, 0xe1, 0xff, 0xff, 0x83, 0x03, 0xf0, 0xff, 0x07, 0xff, 0x01,
   0xc0, 0x7f, 0xf0, 0xff, 0x07, 0xf0, 0xf0, 0xff, 0xff, 0x07, 0x0f, 0xf0,
   0xff, 0x8f, 0xff, 0x03, 0xe0, 0xff, 0xf8, 0xff, 0x07, 0x78, 0xf8, 0xff,
   0xff, 0x0f, 0x1e, 0xf0, 0xff, 0x9f, 0xff, 0x07, 0xf0, 0xff, 0xfc, 0xff,
   0x03, 0x1e, 0xfc, 0xff, 0xff, 0x3f, 0x78, 0xe0, 0xff, 0xff, 0xff, 0x0f,
   0xf8, 0xff, 0xff, 0xff, 0x83, 0x07, 0xfe, 0xff, 0xff, 0x7f, 0xf0, 0xe1,
   0xff, 0xff, 0xff, 0x0f, 0xfc, 0xff, 0xff, 0xff, 0xe3, 0x83, 0xff, 0xff,
   0xff, 0xff, 0xc1, 0xc7, 0xff, 0xff, 0xff, 0x1f, 0xfc, 0xff, 0xff, 0xff,
   0xf9, 0xc0, 0xff, 0xff, 0xff, 0xff, 0x03, 0x9f, 0xff, 0xff, 0xff, 0x1f,
   0xfe, 0xff, 0xff, 0xff, 0x3e, 0xf0, 0xff, 0xff, 0xff, 0xff, 0x0f, 0xfc,
   0xff, 0xff, 0xff, 0x3f, 0xfe, 0xff, 0xff, 0xff, 0x0f, 0xfc, 0xff, 0xff,
   0xff, 0xff, 0x3f, 0xe0, 0xff, 0xff, 0xff, 0x3f, 0xff, 0xff, 0xff, 0xff,
   0x01, 0xff, 0xff, 0xff, 0xff, 0xff, 0xff, 0x00, 0xff, 0xff, 0xff, 0x7f,
   0xff, 0xff, 0xff, 0x3f, 0xc0, 0xff, 0xff, 0xff, 0xff, 0xff, 0xff, 0x03,
   0xf8, 0xff, 0xff, 0x7f, 0xff, 0xff, 0xff, 0x07, 0xf0, 0xff, 0xff, 0xff,
   0xff, 0xff, 0xff, 0x1f, 0xc0, 0xff, 0xff, 0xff, 0xff, 0xff, 0xff, 0x00,
   0xfe, 0xff, 0xff, 0xff, 0xff, 0xff, 0xff, 0xff, 0x00, 0xf8, 0xff, 0xff,
   0xff, 0xff, 0x07, 0xc0, 0xff, 0xff, 0xff, 0xff, 0xff, 0xff, 0xff, 0xff,
   0x07, 0x00, 0xfc, 0xff, 0xff, 0x0f, 0x00, 0xf8, 0xff, 0xff, 0xff, 0xff,
   0xff, 0xff, 0xff, 0xff, 0x7f, 0x00, 0x00, 0x00, 0x00, 0x00, 0x80, 0xff,
   0xff, 0xff, 0xff, 0xff, 0xff, 0xff, 0xff, 0xff, 0xff, 0x1f, 0x00, 0x00,
   0x00, 0x00, 0xfe, 0xff, 0xff, 0xff, 0xff, 0xff, 0xff, 0xff, 0xff, 0xff,
   0xff, 0xff, 0x07, 0x00, 0x00, 0xf8, 0xff, 0xff, 0xff, 0xff, 0xff, 0xff,
   0xff, 0xff, 0xff, 0xff, 0xff, 0xff, 0xff, 0xff, 0xff, 0xff, 0xff, 0xff,
   0xff, 0xff, 0xff, 0xff };
