#define TheOrville_bmp_width 128
#define TheOrville_bmp_height 64
static unsigned char TheOrville_bmp_bits[] = {
   0xff, 0xff, 0xff, 0xff, 0xff, 0xff, 0xff, 0xff, 0xff, 0xff, 0xff, 0xff,
   0xff, 0xff, 0xff, 0x7f, 0xff, 0xff, 0xff, 0xff, 0xff, 0xff, 0xff, 0xff,
   0xff, 0xff, 0xff, 0xff, 0xff, 0xff, 0xff, 0xff, 0xff, 0x1f, 0xff, 0xff,
   0xff, 0xef, 0xff, 0xff, 0xff, 0x7f, 0xfe, 0xff, 0xff, 0xff, 0xff, 0x7f,
   0xff, 0x5f, 0xfe, 0xff, 0xff, 0xcf, 0xff, 0xff, 0xff, 0x3f, 0xfc, 0xff,
   0xff, 0xff, 0xff, 0xff, 0xff, 0x4f, 0xfe, 0xff, 0xff, 0xc7, 0xff, 0xff,
   0xff, 0x1f, 0xf8, 0xff, 0xff, 0xff, 0xff, 0xff, 0xff, 0x27, 0xfc, 0xff,
   0xff, 0xc3, 0xff, 0xff, 0xff, 0x1f, 0xf0, 0xff, 0xff, 0xff, 0xff, 0xff,
   0xff, 0xf3, 0xf9, 0xff, 0xff, 0xc3, 0xff, 0xff, 0xff, 0x0f, 0xf0, 0xff,
   0xff, 0xff, 0xff, 0x7f, 0xff, 0xf3, 0xf3, 0xff, 0xff, 0xa3, 0xff, 0xff,
   0xff, 0x17, 0xe8, 0xff, 0xff, 0xff, 0xff, 0xff, 0xff, 0xe9, 0xea, 0xff,
   0xff, 0x81, 0xff, 0xff, 0xff, 0x03, 0xc0, 0xff, 0xff, 0xff, 0xff, 0x7f,
   0xff, 0xc6, 0xe8, 0xff, 0xff, 0x91, 0xff, 0xff, 0xff, 0x01, 0x80, 0xff,
   0xff, 0xff, 0xff, 0xff, 0xff, 0x46, 0xd9, 0xff, 0xff, 0x98, 0xff, 0xff,
   0xff, 0x0d, 0xb0, 0xff, 0xff, 0xff, 0xff, 0x7f, 0x7f, 0xe7, 0xd9, 0xff,
   0xff, 0x90, 0xff, 0xff, 0xff, 0x0c, 0x30, 0xff, 0xff, 0x7f, 0xc3, 0xff,
   0xff, 0xe7, 0xbd, 0xff, 0xff, 0x3c, 0xff, 0xff, 0xff, 0x06, 0xb0, 0xff,
   0xff, 0x3f, 0x68, 0x7f, 0xbf, 0xe7, 0x79, 0xff, 0xff, 0xb8, 0xff, 0xff,
   0x7f, 0x0b, 0xd0, 0xfe, 0xff, 0x1f, 0xd8, 0xff, 0x9f, 0xe7, 0x79, 0xff,
   0xff, 0x38, 0xff, 0xff, 0x7f, 0x04, 0xa1, 0xfe, 0xff, 0x0f, 0x30, 0x7c,
   0xdf, 0xe3, 0x79, 0xff, 0xff, 0xa0, 0xff, 0xff, 0xbf, 0x02, 0x40, 0xfc,
   0xff, 0x03, 0x20, 0xfa, 0xdf, 0xfb, 0x71, 0xfe, 0xff, 0x20, 0xff, 0xff,
   0x3f, 0x00, 0x00, 0xfd, 0xff, 0x01, 0x60, 0x70, 0x0f, 0xec, 0x2d, 0xfe,
   0x7f, 0x80, 0xff, 0xff, 0x3f, 0x00, 0x00, 0xfc, 0xff, 0x10, 0xe0, 0xec,
   0xef, 0xf3, 0xf9, 0xfe, 0x7f, 0x30, 0xff, 0xff, 0x1f, 0x00, 0x00, 0xf8,
   0xff, 0x08, 0x60, 0x69, 0xef, 0xf3, 0xf9, 0xfd, 0x7f, 0x30, 0xff, 0xff,
   0x1f, 0x00, 0x00, 0xf8, 0x7f, 0x08, 0xe0, 0xe0, 0x6f, 0xff, 0xbd, 0xfd,
   0x7f, 0x50, 0xff, 0xff, 0x1f, 0x04, 0x20, 0xf8, 0x7f, 0x00, 0xe0, 0x51,
   0x27, 0xf7, 0xbd, 0xfd, 0x7f, 0x50, 0xff, 0xff, 0x2f, 0x06, 0x60, 0xf8,
   0x7f, 0x08, 0xe0, 0xd1, 0xf7, 0xf7, 0xfd, 0xfd, 0xff, 0xb8, 0xff, 0xff,
   0x8f, 0x07, 0xe0, 0xf1, 0x7f, 0x08, 0xe0, 0x60, 0xb7, 0xf3, 0x75, 0xfb,
   0xff, 0x90, 0xff, 0xff, 0xaf, 0x07, 0xe0, 0xf5, 0xff, 0x10, 0xa0, 0xe8,
   0xb7, 0xf5, 0x71, 0xfb, 0xff, 0x80, 0xff, 0xff, 0xaf, 0x04, 0xa0, 0xf6,
   0xff, 0x10, 0xd0, 0xf4, 0x77, 0xf3, 0xb1, 0xfb, 0xff, 0x89, 0xff, 0xff,
   0x6f, 0x07, 0xe0, 0xf6, 0xff, 0x01, 0x60, 0xf0, 0x77, 0xe5, 0xa9, 0xfb,
   0xff, 0xa1, 0xff, 0xff, 0x6f, 0x0b, 0xd0, 0xf6, 0xff, 0x07, 0x20, 0x7e,
   0xf7, 0xd4, 0xed, 0xfb, 0xff, 0x09, 0xff, 0xff, 0xaf, 0x09, 0x90, 0xf5,
   0xff, 0x0f, 0x58, 0xfc, 0x77, 0xbe, 0xcd, 0xfb, 0xff, 0x8b, 0xff, 0xff,
   0xaf, 0x18, 0x18, 0xf5, 0xff, 0x3f, 0x68, 0x7f, 0x47, 0xf6, 0xcd, 0xf8,
   0xff, 0x85, 0xff, 0xff, 0x2f, 0x0c, 0x34, 0xf4, 0xff, 0x7f, 0xa8, 0xff,
   0x13, 0xfa, 0x1b, 0xf8, 0xff, 0x85, 0xff, 0xff, 0xcf, 0xac, 0x39, 0xf1,
   0xff, 0xff, 0xe7, 0x7f, 0xab, 0x1a, 0x17, 0xf9, 0xff, 0x85, 0xff, 0xff,
   0x87, 0x94, 0x29, 0xf1, 0xff, 0xff, 0xff, 0xff, 0x6b, 0x5f, 0xae, 0xf9,
   0xff, 0x85, 0xff, 0xff, 0x2f, 0x9d, 0xb9, 0xe4, 0xff, 0xff, 0xff, 0x7f,
   0xfb, 0x1f, 0xfe, 0xfd, 0xff, 0x81, 0xff, 0xff, 0x0f, 0x9d, 0xb9, 0xf0,
   0xff, 0xff, 0xff, 0xff, 0xf3, 0x1f, 0xfe, 0xf9, 0xff, 0x89, 0xff, 0xff,
   0x0f, 0x1d, 0xb8, 0xf0, 0xff, 0xff, 0xff, 0x7f, 0x33, 0x1e, 0x1e, 0xf9,
   0xff, 0x81, 0xff, 0xff, 0x0f, 0x3d, 0xbc, 0xf0, 0xff, 0xff, 0xff, 0xff,
   0x13, 0x1e, 0x0e, 0xfb, 0xff, 0x0c, 0xff, 0xff, 0x47, 0xbe, 0x3d, 0xe2,
   0xff, 0xff, 0xe3, 0x7f, 0x7b, 0x1e, 0x9e, 0xfb, 0xff, 0x08, 0xff, 0xff,
   0x1f, 0xbd, 0xfb, 0xf8, 0xff, 0x3f, 0x80, 0xff, 0x37, 0x03, 0x10, 0xfb,
   0xff, 0x0e, 0xff, 0xff, 0x0f, 0x04, 0x30, 0xf0, 0xff, 0x3f, 0x60, 0x7f,
   0x3f, 0xf9, 0x6f, 0xfb, 0xff, 0x08, 0xff, 0xff, 0x0f, 0xf8, 0x0f, 0xf4,
   0xff, 0x0f, 0x60, 0xfd, 0x77, 0xfe, 0xdf, 0xf9, 0xff, 0x14, 0xfe, 0xff,
   0x2f, 0xfd, 0x3f, 0xf0, 0xff, 0x07, 0x80, 0x7c, 0x77, 0xfe, 0x9f, 0xfd,
   0x7f, 0x4d, 0xfe, 0xff, 0x0f, 0xfc, 0x3f, 0xf2, 0xff, 0x23, 0x84, 0xf6,
   0x67, 0xfe, 0x9f, 0xfd, 0x7f, 0x5d, 0xfe, 0xff, 0x4f, 0xfc, 0x3f, 0xf0,
   0xff, 0x00, 0x10, 0x70, 0xef, 0xfe, 0xdf, 0xfd, 0x7f, 0x35, 0xfc, 0xff,
   0x1f, 0xfc, 0x3f, 0xf8, 0xff, 0x00, 0x60, 0xe0, 0x6f, 0xfe, 0xcf, 0xfc,
   0x3f, 0x2d, 0xfc, 0xff, 0x1f, 0xf8, 0x1f, 0xf8, 0x7f, 0x00, 0xe0, 0x60,
   0x8f, 0xfc, 0x0f, 0xfe, 0x3f, 0x3c, 0xf8, 0xff, 0x9f, 0xf8, 0x1f, 0xf9,
   0x7f, 0x00, 0xe0, 0xc0, 0xff, 0xfc, 0xcf, 0xfe, 0x3f, 0x64, 0xf8, 0xff,
   0xbf, 0xf8, 0x1f, 0xfd, 0x7f, 0x00, 0xe0, 0x41, 0xdf, 0xfc, 0x67, 0xfe,
   0x9f, 0x74, 0xf8, 0xff, 0x3f, 0xf0, 0x0f, 0xfc, 0x7f, 0x00, 0xe0, 0xe0,
   0x9f, 0xf9, 0x63, 0xff, 0x1f, 0x69, 0xf1, 0xff, 0x3f, 0xf0, 0x0f, 0xfc,
   0x7f, 0x00, 0x60, 0x60, 0x1f, 0xf0, 0x07, 0xff, 0x0f, 0xf1, 0xf0, 0xff,
   0x3f, 0xe4, 0x07, 0xfc, 0xff, 0x00, 0x20, 0xf0, 0x1f, 0xab, 0x32, 0xff,
   0x4f, 0xf2, 0xe0, 0xff, 0x7f, 0x00, 0x00, 0xfe, 0xff, 0x21, 0x04, 0x73,
   0x1f, 0xf2, 0x1b, 0xff, 0x87, 0xf2, 0xe1, 0xff, 0x7f, 0x00, 0x00, 0xfe,
   0xff, 0x07, 0x80, 0xfa, 0x3f, 0xe2, 0x01, 0xff, 0xc7, 0xf1, 0xc1, 0xff,
   0x7f, 0x00, 0x00, 0xfe, 0xff, 0x0f, 0x60, 0x7d, 0x3f, 0x44, 0x00, 0xff,
   0xe3, 0xf2, 0x83, 0xff, 0x7f, 0x00, 0x00, 0xfe, 0xff, 0x1f, 0x60, 0xfe,
   0x3f, 0x04, 0x94, 0xff, 0xf3, 0xf2, 0x87, 0xff, 0x7f, 0x02, 0x40, 0xfe,
   0xff, 0x3f, 0x80, 0x7f, 0x7f, 0x08, 0x92, 0xff, 0xff, 0xf0, 0x0f, 0xff,
   0xff, 0x0a, 0x18, 0xff, 0xff, 0xff, 0xe3, 0xff, 0x7f, 0xa2, 0x80, 0xff,
   0xff, 0xf0, 0x7f, 0xff, 0xff, 0x54, 0x22, 0xff, 0xff, 0xff, 0xff, 0x7f,
   0x7f, 0x94, 0xc2, 0xff, 0xff, 0xf0, 0xff, 0xff, 0xff, 0xa8, 0x56, 0xff,
   0xff, 0xff, 0xff, 0xff, 0xff, 0xf0, 0xc3, 0xff, 0xff, 0xf0, 0xff, 0xff,
   0xff, 0xa5, 0xaa, 0xff, 0xff, 0xff, 0xff, 0x7f, 0xff, 0x40, 0xe0, 0xff,
   0xff, 0xf8, 0xff, 0xff, 0xff, 0x03, 0xc0, 0xff, 0xff, 0xff, 0xff, 0xff,
   0xff, 0x03, 0xf2, 0xff, 0xff, 0xf8, 0xff, 0xff, 0xff, 0x07, 0xe0, 0xff,
   0xff, 0xff, 0xff, 0x7f, 0xff, 0x07, 0xf8, 0xff, 0xff, 0xfc, 0xff, 0xff,
   0xff, 0x0f, 0xf0, 0xff, 0xff, 0xff, 0xff, 0xff, 0xff, 0x1f, 0xff, 0xff,
   0xff, 0xff, 0xff, 0xff, 0xff, 0x3f, 0xfd, 0xff, 0xff, 0xff, 0xff, 0x7f,
   0xff, 0xff, 0xff, 0xff, 0xff, 0xff, 0xff, 0xff, 0xff, 0xff, 0xff, 0xff,
   0xff, 0xff, 0xff, 0xff };
