#define scienceTheOrville_width 64
#define scienceTheOrville_height 66
static unsigned char scienceTheOrville_bits[] = {
   0x01, 0x00, 0x00, 0x00, 0x00, 0x00, 0x00, 0x00, 0x01, 0x00, 0x00, 0xfe,
   0x0f, 0x00, 0x00, 0x00, 0x00, 0x00, 0xc0, 0xff, 0xff, 0x00, 0x00, 0x00,
   0x00, 0x00, 0xf8, 0xff, 0xff, 0x07, 0x00, 0x00, 0x00, 0x00, 0xfe, 0xff,
   0xff, 0x1f, 0x00, 0x00, 0x00, 0x80, 0xff, 0xff, 0xff, 0x3f, 0x00, 0x00,
   0x00, 0xc0, 0xff, 0x07, 0xf8, 0xff, 0x00, 0x00, 0x00, 0xf0, 0x3f, 0x00,
   0x80, 0xff, 0x03, 0x00, 0x00, 0xf8, 0x0f, 0x00, 0x00, 0xfe, 0x03, 0x00,
   0x00, 0xfc, 0x03, 0x00, 0x00, 0xf8, 0x0f, 0x00, 0x00, 0xfe, 0x01, 0x00,
   0x00, 0xe0, 0x1f, 0x00, 0x00, 0x7f, 0x00, 0x00, 0x00, 0xc0, 0x3f, 0x00,
   0x80, 0x3f, 0x00, 0x00, 0x00, 0x80, 0x3f, 0x00, 0xc0, 0x1f, 0x00, 0xff,
   0x3f, 0x00, 0x7e, 0x00, 0xc0, 0x0f, 0x00, 0xff, 0x3f, 0x00, 0xfc, 0x00,
   0xe0, 0x07, 0x00, 0x03, 0x30, 0x00, 0xfc, 0x01, 0xf0, 0x03, 0x00, 0x03,
   0x30, 0x00, 0xf8, 0x01, 0xf0, 0x03, 0x00, 0x03, 0x30, 0x00, 0xf0, 0x03,
   0xf8, 0x01, 0x00, 0x03, 0x30, 0x00, 0xe0, 0x03, 0xf8, 0x00, 0x80, 0x07,
   0x30, 0x00, 0xe0, 0x07, 0xf8, 0x00, 0xc0, 0x04, 0x30, 0x00, 0xc0, 0x07,
   0xfc, 0x00, 0xc0, 0x0c, 0x30, 0x00, 0xc0, 0x0f, 0x7c, 0x00, 0xc0, 0x06,
   0x30, 0x00, 0xc0, 0x0f, 0x7e, 0x00, 0x00, 0xe3, 0x30, 0x00, 0x80, 0x0f,
   0x7e, 0x00, 0x00, 0x30, 0x31, 0x1f, 0x80, 0x0f, 0x3e, 0x00, 0x00, 0x30,
   0x01, 0x11, 0x00, 0x1f, 0x3e, 0xfc, 0x9f, 0x17, 0x39, 0xf1, 0x0f, 0x1f,
   0x3e, 0x04, 0xc0, 0x3c, 0x47, 0x1b, 0x0c, 0x1f, 0x3e, 0x04, 0x80, 0xf0,
   0x42, 0x0e, 0x0c, 0x1f, 0x3e, 0x04, 0x80, 0xb1, 0x23, 0x00, 0x0c, 0x1f,
   0x3f, 0x04, 0x00, 0xff, 0x16, 0x00, 0x0c, 0x1f, 0x3f, 0x04, 0x00, 0xf6,
   0x0a, 0x00, 0x0c, 0x1f, 0x3f, 0x04, 0x00, 0xd9, 0x76, 0x00, 0x0c, 0x1f,
   0x3f, 0x04, 0x80, 0xf0, 0x73, 0x00, 0x0c, 0x1f, 0x3e, 0x04, 0xc0, 0xf0,
   0x43, 0x00, 0x0c, 0x1f, 0x3e, 0x04, 0xde, 0x1f, 0x7f, 0x00, 0x0c, 0x1f,
   0x3e, 0xfc, 0x33, 0x12, 0x01, 0xff, 0x0f, 0x1f, 0x3e, 0xfc, 0x23, 0x20,
   0x01, 0xff, 0x0f, 0x1f, 0x3e, 0x00, 0x32, 0xa0, 0x01, 0x00, 0x80, 0x0f,
   0x7e, 0x00, 0x1e, 0xc3, 0x00, 0x00, 0x80, 0x0f, 0x7c, 0x00, 0x00, 0x03,
   0x70, 0x00, 0x80, 0x0f, 0x7c, 0x00, 0x00, 0x03, 0xd8, 0x00, 0xc0, 0x0f,
   0xfc, 0x00, 0x00, 0x03, 0x88, 0x00, 0xc0, 0x07, 0xf8, 0x00, 0x00, 0x03,
   0xc8, 0x00, 0xe0, 0x07, 0xf8, 0x01, 0x00, 0x03, 0x78, 0x00, 0xe0, 0x03,
   0xf0, 0x01, 0x00, 0x03, 0x30, 0x00, 0xf0, 0x03, 0xf0, 0x03, 0x00, 0x03,
   0x30, 0x00, 0xf8, 0x01, 0xe0, 0x07, 0x00, 0x03, 0x30, 0x00, 0xf8, 0x01,
   0xe0, 0x0f, 0x00, 0x03, 0x30, 0x00, 0xfc, 0x00, 0xc0, 0x1f, 0x00, 0xff,
   0x3f, 0x00, 0xfe, 0x00, 0x80, 0x3f, 0x00, 0x00, 0x00, 0x00, 0x7f, 0x00,
   0x00, 0x7f, 0x00, 0x00, 0x00, 0x80, 0x3f, 0x00, 0x00, 0xff, 0x00, 0x00,
   0x00, 0xc0, 0x1f, 0x00, 0x00, 0xfc, 0x03, 0x00, 0x00, 0xf0, 0x0f, 0x00,
   0x00, 0xfc, 0x07, 0x00, 0x00, 0xf8, 0x07, 0x00, 0x00, 0xf0, 0x1f, 0x00,
   0x00, 0xff, 0x03, 0x00, 0x00, 0xe0, 0xff, 0x01, 0xe0, 0xff, 0x01, 0x00,
   0x00, 0x80, 0xff, 0xff, 0xff, 0x7f, 0x00, 0x00, 0x00, 0x00, 0xff, 0xff,
   0xff, 0x3f, 0x00, 0x00, 0x00, 0x00, 0xfc, 0xff, 0xff, 0x0f, 0x00, 0x00,
   0x00, 0x00, 0xe0, 0xff, 0xff, 0x01, 0x00, 0x00, 0x00, 0x00, 0x80, 0xff,
   0x3f, 0x00, 0x00, 0x00, 0x00, 0x00, 0x00, 0x00, 0x00, 0x00, 0x00, 0x00,
   0x00, 0x00, 0x00, 0x00, 0x00, 0x00, 0x00, 0x00, 0x00, 0x00, 0x00, 0x00,
   0x00, 0x00, 0x00, 0x00, 0x00, 0x00, 0x00, 0x00, 0x00, 0x00, 0x00, 0x00 };
