#define 1709232708942_width 36
#define 1709232708942_height 36
static char 1709232708942_bits[] = {
  0x00, 0xF0, 0xFF, 0x00, 0x00, 0x00, 0xFE, 0xFF, 0x07, 0x00, 0x00, 0xFF, 
  0xDF, 0x0F, 0x00, 0xC0, 0xFF, 0xFF, 0x3F, 0x00, 0xE0, 0xFF, 0xFD, 0x7F, 
  0x00, 0xF0, 0xFF, 0xFF, 0xFF, 0x00, 0xF8, 0xFF, 0xFF, 0xFF, 0x01, 0xF8, 
  0xFE, 0xFF, 0xFF, 0x01, 0xFC, 0xFF, 0xFF, 0xFF, 0x03, 0xFE, 0xFF, 0xFF, 
  0xFF, 0x07, 0xFE, 0xFE, 0xFF, 0xFF, 0x07, 0xFE, 0xFF, 0xFF, 0xFD, 0x07, 
  0xFF, 0xFF, 0xFD, 0xFF, 0x0F, 0xFF, 0xFF, 0xFF, 0xFF, 0x0F, 0xFF, 0xFF, 
  0xFF, 0xFF, 0x0F, 0xFF, 0xFF, 0xFF, 0xBF, 0x0F, 0xFF, 0xFF, 0xFF, 0xFF, 
  0x07, 0xFE, 0xFF, 0xFF, 0xFF, 0x0F, 0xFF, 0xFF, 0xFF, 0xFF, 0x0F, 0xFF, 
  0xFF, 0xFF, 0xFF, 0x0F, 0xFF, 0xFF, 0xFF, 0xFF, 0x0F, 0xFF, 0xFF, 0xFF, 
  0xFF, 0x0F, 0xFF, 0xFF, 0xFB, 0xFF, 0x0F, 0xFF, 0xFF, 0xFF, 0xFF, 0x0F, 
  0xFE, 0xFF, 0xFF, 0xFF, 0x07, 0xFE, 0xFF, 0xFF, 0xFF, 0x07, 0xFE, 0xFF, 
  0xFF, 0xFF, 0x07, 0xFC, 0xFF, 0xFF, 0xFF, 0x03, 0xF8, 0xFF, 0xFF, 0xFF, 
  0x01, 0xD8, 0xFF, 0xFF, 0xDF, 0x01, 0xF0, 0xFF, 0xFF, 0xFF, 0x00, 0xE0, 
  0xFF, 0xFF, 0x7F, 0x00, 0xC0, 0xFF, 0xFB, 0x3F, 0x00, 0x00, 0xFF, 0xFF, 
  0x0F, 0x00, 0x00, 0xFE, 0xFF, 0x07, 0x00, 0x00, 0xF0, 0xFF, 0x00, 0x00, 
  };
