#define 1709234591504_width 36
#define 1709234591504_height 36
static char 1709234591504_bits[] = {
  0xFF, 0x1F, 0x80, 0xFF, 0x0F, 0xFF, 0x7F, 0xE0, 0xFF, 0x0F, 0xFF, 0xFF, 
  0xF0, 0xFF, 0x0F, 0x7F, 0xFF, 0xF0, 0xEF, 0x0F, 0xFF, 0xFF, 0xF9, 0xFF, 
  0x0F, 0xFF, 0xFF, 0xF9, 0xFF, 0x0F, 0xFF, 0xFF, 0xF9, 0xFF, 0x0F, 0xFF, 
  0xFF, 0xF0, 0xFF, 0x0F, 0xFF, 0xFF, 0xF0, 0xFF, 0x0F, 0xFF, 0xFF, 0xF0, 
  0xFF, 0x0F, 0xFD, 0xFF, 0xF0, 0xFF, 0x0B, 0xF9, 0x7F, 0xE0, 0xFF, 0x09, 
  0xF1, 0x7F, 0xE0, 0xFF, 0x08, 0xE1, 0x3F, 0xC0, 0x3F, 0x08, 0x80, 0x1F, 
  0x80, 0x1F, 0x00, 0x00, 0x08, 0x00, 0x01, 0x00, 0x00, 0x00, 0x00, 0x00, 
  0x00, 0x00, 0x00, 0x00, 0x00, 0x00, 0x00, 0x00, 0x00, 0x00, 0x00, 0x00, 
  0x00, 0x00, 0x00, 0x00, 0x00, 0x00, 0x00, 0x00, 0x00, 0x00, 0x1C, 0x80, 
  0x03, 0x00, 0x01, 0xFE, 0xFF, 0x07, 0x08, 0x01, 0xFE, 0xFF, 0x07, 0x08, 
  0x01, 0xFC, 0xFF, 0x03, 0x08, 0x03, 0xFC, 0xFF, 0x03, 0x0C, 0x03, 0xF8, 
  0xFF, 0x01, 0x0C, 0x07, 0xF0, 0xFF, 0x00, 0x0E, 0x07, 0xE0, 0x7F, 0x00, 
  0x0E, 0x0F, 0x80, 0x1F, 0x00, 0x0F, 0x1F, 0x00, 0x00, 0x80, 0x0F, 0x3F, 
  0x00, 0x00, 0xC0, 0x0F, 0x7F, 0x00, 0x00, 0xE0, 0x0F, 0xFF, 0x01, 0x00, 
  0xF8, 0x0F, 0xFF, 0x07, 0x00, 0xFE, 0x0F, 0xFF, 0x3F, 0xC0, 0xFF, 0x0F, 
  };
