#define 1709234810783_width 36
#define 1709234810783_height 36
static char 1709234810783_bits[] = {
  0xFF, 0xE7, 0x7F, 0xFE, 0x0F, 0xFF, 0x81, 0x1F, 0xF8, 0x0F, 0xFF, 0x00, 
  0x0F, 0xF0, 0x0F, 0x83, 0x00, 0x0F, 0x10, 0x0E, 0x01, 0x00, 0x06, 0x00, 
  0x08, 0x01, 0x00, 0x06, 0x00, 0x08, 0x01, 0x00, 0x06, 0x00, 0x08, 0x00, 
  0x00, 0x0F, 0x00, 0x00, 0x01, 0x00, 0x0F, 0x00, 0x08, 0x01, 0x00, 0x0F, 
  0x00, 0x08, 0x03, 0x00, 0x0F, 0x00, 0x0C, 0x07, 0x80, 0x1F, 0x00, 0x0E, 
  0x0F, 0x80, 0x1F, 0x00, 0x0F, 0x1F, 0xC0, 0x3F, 0xC0, 0x0F, 0x7F, 0xE0, 
  0x7F, 0xE0, 0x0F, 0xFF, 0xF7, 0xFF, 0xFE, 0x0F, 0xFF, 0xFF, 0xFF, 0xFF, 
  0x0F, 0xFF, 0xFF, 0xFF, 0xFF, 0x0F, 0xFF, 0xFF, 0xFF, 0xFF, 0x0F, 0xFF, 
  0xFF, 0xFF, 0xFF, 0x0F, 0xFF, 0xFF, 0xFF, 0xFF, 0x0F, 0xFF, 0xE3, 0x7F, 
  0xFC, 0x0F, 0xFF, 0x01, 0x00, 0xF8, 0x0F, 0xFF, 0x01, 0x00, 0xF8, 0x0F, 
  0xFF, 0x03, 0x00, 0xFC, 0x0F, 0xFF, 0x03, 0x00, 0xFC, 0x0F, 0xFF, 0x07, 
  0x00, 0xFE, 0x0F, 0xFF, 0x0F, 0x00, 0xFF, 0x0F, 0xFF, 0x1F, 0x80, 0xFF, 
  0x0F, 0xFF, 0x7F, 0xE0, 0xFF, 0x0F, 0xFF, 0xFF, 0xFF, 0xFF, 0x0F, 0xFF, 
  0xFF, 0xFF, 0xFF, 0x0F, 0xFF, 0xFF, 0xFF, 0xFF, 0x0F, 0xFF, 0xFF, 0xFF, 
  0xFF, 0x0F, 0xFF, 0xFF, 0xFF, 0xFF, 0x0F, 0xFF, 0xFF, 0xFF, 0xFF, 0x0F, 
  };
