#define 1709234318612_width 36
#define 1709234318612_height 36
static char 1709234318612_bits[] = {
  0xFF, 0x37, 0x40, 0xFF, 0x0F, 0xFF, 0x5E, 0xE0, 0xF5, 0x0F, 0xFF, 0xFB, 
  0xD0, 0xFF, 0x0F, 0xEF, 0x9E, 0x31, 0xFA, 0x0F, 0xDF, 0xF5, 0xF0, 0xB7, 
  0x0E, 0x7B, 0x2D, 0xA9, 0xED, 0x0B, 0x55, 0xF7, 0xF1, 0xAA, 0x0E, 0xF7, 
  0x9E, 0x98, 0xBE, 0x03, 0xFB, 0xEC, 0xE8, 0xCF, 0x0B, 0xAA, 0xBB, 0x30, 
  0x75, 0x0E, 0xED, 0xDD, 0xD0, 0xDF, 0x0E, 0xB5, 0x37, 0x60, 0x79, 0x0B, 
  0x68, 0x79, 0xE0, 0xAE, 0x00, 0x60, 0x1F, 0x80, 0x7B, 0x00, 0x80, 0x12, 
  0x80, 0x05, 0x00, 0x00, 0x0E, 0x00, 0x07, 0x00, 0x00, 0x00, 0x00, 0x00, 
  0x00, 0x00, 0x00, 0x00, 0x00, 0x00, 0x00, 0x00, 0x00, 0x00, 0x00, 0x00, 
  0x00, 0x00, 0x00, 0x00, 0x00, 0x00, 0x00, 0x00, 0x00, 0x00, 0x3C, 0x90, 
  0x03, 0x00, 0x00, 0xFE, 0xFF, 0x07, 0x00, 0x00, 0xFE, 0xFF, 0x07, 0x00, 
  0x01, 0xFE, 0xFF, 0x07, 0x08, 0x01, 0xFC, 0xFF, 0x03, 0x08, 0x03, 0xF8, 
  0xFF, 0x01, 0x0C, 0x03, 0xF0, 0xFF, 0x01, 0x0C, 0x07, 0xE0, 0x7F, 0x00, 
  0x0E, 0x0F, 0x40, 0x1F, 0x00, 0x0F, 0x0F, 0x00, 0x04, 0x00, 0x0F, 0x1F, 
  0x00, 0x00, 0x80, 0x0F, 0x7F, 0x00, 0x00, 0xD0, 0x0F, 0xFF, 0x00, 0x00, 
  0xF0, 0x0F, 0xFF, 0x0B, 0x00, 0xFA, 0x0F, 0xFF, 0x0F, 0x00, 0xFF, 0x0F, 
  };
