#define 1709232768376_width 36
#define 1709232768376_height 36
static char 1709232768376_bits[] = {
  0x00, 0x80, 0x08, 0x00, 0x00, 0x00, 0x00, 0x40, 0x00, 0x00, 0x00, 0x00, 
  0xA0, 0x00, 0x00, 0x00, 0x4C, 0x08, 0x08, 0x00, 0x00, 0xFE, 0x11, 0x04, 
  0x00, 0x00, 0xFF, 0x83, 0x00, 0x00, 0x20, 0x16, 0x01, 0x01, 0x00, 0x00, 
  0xA0, 0x29, 0x08, 0x00, 0x00, 0x72, 0xF2, 0x3F, 0x00, 0x40, 0x78, 0xE0, 
  0xBF, 0x00, 0xA0, 0x79, 0xE8, 0x3F, 0x00, 0x00, 0xFC, 0xC1, 0x27, 0x00, 
  0x08, 0xF8, 0xC8, 0x87, 0x02, 0x00, 0xB0, 0xC0, 0x07, 0x00, 0x80, 0x11, 
  0xE0, 0x03, 0x00, 0x10, 0x28, 0x08, 0x46, 0x00, 0x80, 0x10, 0x01, 0x88, 
  0x02, 0x14, 0x84, 0x48, 0x01, 0x00, 0x00, 0x06, 0x61, 0x00, 0x00, 0x04, 
  0xDC, 0x0F, 0x44, 0x00, 0x80, 0xDC, 0x3F, 0x00, 0x00, 0x10, 0x9A, 0x7A, 
  0x52, 0x04, 0x00, 0x2C, 0x50, 0x24, 0x00, 0x44, 0x3A, 0xF9, 0x03, 0x00, 
  0x00, 0x8F, 0xFE, 0x88, 0x00, 0x80, 0xBA, 0xAD, 0x01, 0x00, 0xC0, 0xFA, 
  0x27, 0x00, 0x00, 0x40, 0xAF, 0x45, 0x44, 0x00, 0x80, 0xAE, 0x27, 0x02, 
  0x00, 0xE0, 0xF7, 0x05, 0x10, 0x00, 0x40, 0xBA, 0x06, 0x00, 0x00, 0xC0, 
  0xDF, 0x17, 0x01, 0x00, 0x80, 0xFB, 0x03, 0x00, 0x00, 0x00, 0x5D, 0x06, 
  0x00, 0x00, 0x00, 0xEF, 0x03, 0x00, 0x00, 0x00, 0x74, 0x02, 0x00, 0x00, 
  };
