#define batman_5377804_1920a_bmp_width 128
#define batman_5377804_1920a_bmp_height 64
static unsigned char batman_5377804_1920a_bmp_bits[] = {
   0x00, 0x00, 0x00, 0x00, 0x00, 0x00, 0x00, 0x00, 0x00, 0x00, 0x00, 0x00,
   0x00, 0x00, 0x00, 0x00, 0x00, 0x00, 0x00, 0x00, 0x00, 0x00, 0x00, 0x00,
   0x00, 0x00, 0x00, 0x00, 0x00, 0x00, 0x00, 0x00, 0x00, 0x00, 0x00, 0x00,
   0x00, 0x00, 0x00, 0x00, 0x00, 0x00, 0x00, 0x00, 0x00, 0xe0, 0x01, 0x00,
   0x00, 0x00, 0x00, 0x00, 0x00, 0x00, 0x08, 0x00, 0x00, 0x00, 0x00, 0x00,
   0xa0, 0xef, 0x00, 0x00, 0x00, 0x00, 0x00, 0x00, 0x00, 0x00, 0x20, 0x00,
   0x00, 0x00, 0x00, 0x00, 0x1d, 0x00, 0x00, 0x00, 0x00, 0x00, 0x00, 0x00,
   0x00, 0x00, 0x05, 0x00, 0x00, 0x00, 0x00, 0xd0, 0x00, 0x08, 0x00, 0x00,
   0x00, 0x00, 0x00, 0x00, 0x5f, 0xe2, 0x7f, 0x00, 0x00, 0x00, 0x00, 0x1d,
   0x00, 0x70, 0x00, 0x00, 0x00, 0x00, 0x00, 0xe0, 0xf0, 0x3f, 0x84, 0x07,
   0x00, 0x00, 0xf0, 0x03, 0x00, 0x80, 0x01, 0x00, 0x00, 0x00, 0x00, 0x18,
   0x1c, 0x00, 0x08, 0x1c, 0x00, 0x00, 0x1e, 0x00, 0xc0, 0xfe, 0x03, 0x00,
   0x00, 0x00, 0x00, 0x0c, 0x06, 0x00, 0x18, 0x70, 0x00, 0xe0, 0x03, 0x00,
   0xff, 0x0f, 0x00, 0x00, 0x00, 0x00, 0x00, 0x04, 0x6f, 0x00, 0x10, 0x80,
   0x4f, 0x1f, 0xc0, 0xf7, 0x03, 0x30, 0x00, 0x00, 0x00, 0x00, 0x00, 0x84,
   0xf9, 0x03, 0x10, 0x00, 0x80, 0xc0, 0xfb, 0x00, 0x00, 0xe0, 0x00, 0x00,
   0x00, 0x00, 0x00, 0xc2, 0x10, 0x77, 0x30, 0x00, 0x80, 0xfb, 0x00, 0x00,
   0x00, 0xe0, 0x00, 0x00, 0x00, 0x00, 0x00, 0xe2, 0x13, 0xbc, 0xff, 0x9f,
   0x03, 0x03, 0x00, 0x00, 0x00, 0x1e, 0x00, 0x00, 0x00, 0x00, 0x00, 0xe2,
   0xd9, 0xf3, 0xff, 0xe7, 0x23, 0x03, 0x00, 0x00, 0x00, 0x03, 0x00, 0x00,
   0x00, 0x00, 0x00, 0x31, 0x19, 0xfe, 0xff, 0xff, 0xef, 0x01, 0x00, 0x00,
   0x00, 0x01, 0x00, 0x00, 0x00, 0x00, 0x00, 0x31, 0x1a, 0xf0, 0x3f, 0x18,
   0xff, 0x00, 0x00, 0x00, 0x00, 0x0e, 0x40, 0x00, 0x00, 0x00, 0x80, 0x39,
   0x0a, 0xc0, 0x1f, 0x18, 0xf0, 0x00, 0x00, 0x00, 0x00, 0x38, 0x60, 0x00,
   0x00, 0x00, 0x80, 0x78, 0x0e, 0xc0, 0x30, 0x30, 0xc0, 0x03, 0x00, 0x00,
   0x00, 0x60, 0x51, 0x00, 0x00, 0x08, 0x80, 0x1c, 0xcc, 0xcf, 0x30, 0x60,
   0x00, 0x0a, 0x00, 0x00, 0x00, 0x16, 0x4c, 0x00, 0xf4, 0xf7, 0x57, 0x24,
   0x0c, 0xc0, 0x30, 0x60, 0x00, 0x78, 0x00, 0x00, 0x00, 0x01, 0x46, 0x00,
   0xe0, 0xf3, 0x7d, 0x14, 0x1a, 0xc0, 0x30, 0x60, 0x00, 0xc0, 0x06, 0x00,
   0x80, 0x01, 0x22, 0x00, 0x00, 0xc3, 0x11, 0x74, 0x5a, 0xc0, 0x30, 0xe0,
   0x03, 0x00, 0xff, 0xff, 0x07, 0x81, 0x21, 0x00, 0x00, 0x81, 0x11, 0x64,
   0x92, 0xc0, 0x3f, 0x30, 0x0f, 0x00, 0x18, 0x7c, 0xff, 0xeb, 0x10, 0x00,
   0x00, 0xf1, 0x11, 0x2c, 0x93, 0x81, 0x17, 0x10, 0x1c, 0x00, 0x0c, 0x70,
   0x00, 0x1f, 0x10, 0x00, 0x00, 0x71, 0x10, 0x28, 0x11, 0xc3, 0x1f, 0x18,
   0x70, 0x00, 0x0c, 0xc0, 0x00, 0x00, 0x18, 0x00, 0x00, 0x71, 0x19, 0x78,
   0x03, 0xc6, 0x1a, 0x0c, 0xc0, 0x00, 0x00, 0x80, 0x03, 0x00, 0x08, 0x00,
   0x00, 0xe6, 0x0f, 0x98, 0x12, 0xc4, 0x1f, 0x04, 0x80, 0xff, 0x03, 0x00,
   0x87, 0xff, 0x07, 0x00, 0x80, 0x03, 0x00, 0x30, 0x13, 0xcc, 0x1f, 0x06,
   0x00, 0x0e, 0x1f, 0x00, 0xfe, 0x00, 0x00, 0x00, 0x30, 0x1e, 0x00, 0x30,
   0x00, 0xc8, 0x1f, 0x04, 0x00, 0x18, 0x70, 0xe0, 0x87, 0x00, 0x00, 0x00,
   0xf0, 0xe3, 0x07, 0x60, 0x10, 0xc0, 0x1f, 0x04, 0x00, 0x70, 0xe0, 0xff,
   0x00, 0x01, 0x00, 0x00, 0x00, 0x00, 0x18, 0x60, 0x18, 0xc0, 0x1f, 0x04,
   0x00, 0xc0, 0x01, 0x02, 0x00, 0x06, 0x00, 0x00, 0x00, 0x00, 0x20, 0xc0,
   0x08, 0xf0, 0x7f, 0x04, 0x00, 0x80, 0x03, 0x00, 0x00, 0x38, 0x00, 0x00,
   0x00, 0x00, 0x40, 0xc0, 0x0c, 0xb8, 0xff, 0x3f, 0xfc, 0x00, 0xfe, 0x00,
   0x00, 0x60, 0x00, 0x00, 0x00, 0x00, 0x40, 0x80, 0x0d, 0x08, 0x00, 0xf8,
   0xfe, 0x01, 0x7c, 0x0f, 0x00, 0x18, 0x00, 0x00, 0x00, 0x00, 0x80, 0x80,
   0x0d, 0x0c, 0x00, 0x80, 0x77, 0x03, 0x00, 0xfc, 0x00, 0x04, 0x00, 0x00,
   0x00, 0x00, 0x80, 0x00, 0xff, 0x07, 0x00, 0x00, 0x03, 0x07, 0x07, 0xc0,
   0x07, 0x03, 0x00, 0x00, 0x00, 0x00, 0x80, 0x00, 0x82, 0x07, 0x00, 0x00,
   0x03, 0xff, 0x01, 0x00, 0xff, 0x01, 0x00, 0x00, 0x00, 0x00, 0x80, 0x00,
   0x06, 0xfc, 0xef, 0xff, 0x81, 0xe1, 0x03, 0xe0, 0xc3, 0x03, 0x00, 0x00,
   0x00, 0x00, 0x00, 0x01, 0x0c, 0x10, 0xf8, 0x7f, 0x80, 0x01, 0x06, 0xe0,
   0x00, 0xfe, 0x1f, 0x00, 0x00, 0x00, 0x00, 0x01, 0x18, 0x00, 0x60, 0x00,
   0x80, 0x01, 0x0c, 0xc0, 0x01, 0x00, 0xe0, 0x0f, 0x00, 0x00, 0x00, 0x01,
   0x30, 0x00, 0x60, 0x00, 0xc2, 0x00, 0x38, 0x00, 0x03, 0x00, 0x00, 0x38,
   0x00, 0x00, 0x00, 0x03, 0x60, 0x00, 0x30, 0x00, 0x7f, 0x00, 0x70, 0x00,
   0x06, 0xf8, 0x07, 0x60, 0x00, 0x00, 0x00, 0x02, 0xc0, 0x00, 0x10, 0xc0,
   0x01, 0x00, 0xc0, 0x07, 0x7c, 0x07, 0x38, 0x10, 0x00, 0x00, 0x00, 0x02,
   0x80, 0x01, 0x10, 0x70, 0x00, 0x00, 0x00, 0xfe, 0x1f, 0x38, 0x80, 0x0f,
   0x00, 0x00, 0x00, 0x04, 0x00, 0x03, 0x10, 0x2e, 0x00, 0x00, 0x00, 0x00,
   0x00, 0xe0, 0x00, 0x00, 0x00, 0x00, 0x00, 0x08, 0x00, 0x7e, 0x90, 0x19,
   0x00, 0x00, 0x00, 0x00, 0x00, 0x38, 0x00, 0x00, 0x00, 0x00, 0x00, 0x30,
   0x00, 0xf8, 0xf3, 0x1d, 0x00, 0x00, 0x00, 0x00, 0x00, 0x06, 0x00, 0x00,
   0x00, 0x00, 0x00, 0xc0, 0x1f, 0xa0, 0x9f, 0x3e, 0x00, 0x00, 0x00, 0x00,
   0x00, 0x01, 0x00, 0x00, 0x00, 0x00, 0x00, 0x00, 0xf0, 0x13, 0xdc, 0xee,
   0xff, 0x00, 0x00, 0x00, 0x00, 0xc1, 0x00, 0x00, 0x00, 0x00, 0x00, 0x00,
   0x00, 0x88, 0xa7, 0x01, 0xbe, 0xff, 0x66, 0xec, 0xff, 0xfd, 0x00, 0x00,
   0x00, 0x00, 0x00, 0x00, 0x00, 0x00, 0xb0, 0x03, 0x00, 0xf0, 0xff, 0xff,
   0x07, 0x30, 0x00, 0x00, 0x00, 0x00, 0x00, 0x00, 0x00, 0x00, 0x00, 0x34,
   0x00, 0x00, 0x00, 0x00, 0x00, 0x08, 0x00, 0x00, 0x00, 0x00, 0x00, 0x00,
   0x00, 0x00, 0x00, 0x40, 0x03, 0x00, 0x00, 0x00, 0x00, 0x1e, 0x00, 0x00,
   0x00, 0x00, 0x00, 0x00, 0x00, 0x00, 0x00, 0x00, 0x3c, 0x00, 0x00, 0x00,
   0x80, 0x63, 0x00, 0x00, 0x00, 0x00, 0x00, 0x00, 0x00, 0x00, 0x00, 0x00,
   0xe0, 0x07, 0x00, 0x00, 0xc0, 0xc1, 0x00, 0x00, 0x00, 0x00, 0x00, 0x00,
   0x00, 0x00, 0x00, 0x00, 0x00, 0xf8, 0x01, 0x00, 0xc0, 0x30, 0x00, 0x00,
   0x00, 0x00, 0x00, 0x00, 0x00, 0x00, 0x00, 0x00, 0x00, 0x00, 0x2f, 0x00,
   0xc0, 0x0d, 0x00, 0x00, 0x00, 0x00, 0x00, 0x00, 0x00, 0x00, 0x00, 0x00,
   0x00, 0x00, 0xd0, 0x03, 0x80, 0x07, 0x00, 0x00, 0x00, 0x00, 0x00, 0x00,
   0x00, 0x00, 0x00, 0x00, 0x00, 0x00, 0x00, 0xe4, 0x00, 0x1c, 0x00, 0x00,
   0x00, 0x00, 0x00, 0x00, 0x00, 0x00, 0x00, 0x00, 0x00, 0x00, 0x00, 0x00,
   0xf3, 0x7f, 0x02, 0x00, 0x00, 0x00, 0x00, 0x00, 0x00, 0x00, 0x00, 0x00,
   0x00, 0x00, 0x00, 0x00, 0x00, 0x00, 0x00, 0x00, 0x00, 0x00, 0x00, 0x00,
   0x00, 0x00, 0x00, 0x00, 0x00, 0x00, 0x00, 0x00, 0x00, 0x00, 0x00, 0x00,
   0x00, 0x00, 0x00, 0x00, 0x00, 0x00, 0x00, 0x00, 0x00, 0x00, 0x00, 0x00,
   0x00, 0x00, 0x00, 0x00 };
