#define TheOrville2_bmp_width 128
#define TheOrville2_bmp_height 64
static unsigned char TheOrville2_bmp_bits[] = {
   0x00, 0x00, 0x00, 0x00, 0x00, 0x00, 0x00, 0x00, 0x00, 0x00, 0x00, 0x00,
   0x00, 0x00, 0x00, 0x00, 0x00, 0x00, 0x00, 0x00, 0x00, 0x00, 0x00, 0x00,
   0x00, 0x00, 0x00, 0x00, 0x00, 0x00, 0x00, 0x00, 0x00, 0x00, 0x00, 0x00,
   0x00, 0x00, 0x00, 0x00, 0x00, 0x00, 0x01, 0x00, 0x00, 0x00, 0x00, 0x00,
   0x00, 0xa0, 0x00, 0x00, 0x00, 0x10, 0x00, 0x00, 0x00, 0x80, 0x01, 0x00,
   0x00, 0x00, 0x00, 0x00, 0x00, 0x20, 0x01, 0x00, 0x00, 0x28, 0x00, 0x00,
   0x00, 0x40, 0x03, 0x00, 0x00, 0x00, 0x00, 0x00, 0x00, 0x90, 0x02, 0x00,
   0x00, 0x28, 0x00, 0x00, 0x00, 0x60, 0x06, 0x00, 0x00, 0x00, 0x00, 0x00,
   0x00, 0x08, 0x04, 0x00, 0x00, 0x1c, 0x00, 0x00, 0x00, 0xd0, 0x0b, 0x00,
   0x00, 0x00, 0x00, 0x00, 0x00, 0x04, 0x04, 0x00, 0x00, 0x5c, 0x00, 0x00,
   0x00, 0xa8, 0x06, 0x00, 0x00, 0x00, 0x00, 0x00, 0x00, 0x12, 0x14, 0x00,
   0x00, 0x2c, 0x00, 0x00, 0x00, 0x68, 0x1b, 0x00, 0x00, 0x00, 0x00, 0x00,
   0x00, 0x18, 0x13, 0x00, 0x00, 0x6e, 0x00, 0x00, 0x00, 0xf4, 0x2f, 0x00,
   0x00, 0x00, 0x00, 0x00, 0x00, 0x18, 0x02, 0x00, 0x00, 0x47, 0x00, 0x00,
   0x00, 0xf2, 0x4f, 0x00, 0x00, 0x00, 0x00, 0x00, 0x80, 0x18, 0x02, 0x00,
   0x00, 0x47, 0x00, 0x00, 0x00, 0x72, 0x47, 0x00, 0x00, 0x00, 0x10, 0x00,
   0x00, 0x08, 0x42, 0x00, 0x00, 0x43, 0x00, 0x00, 0x00, 0xf0, 0x8f, 0x00,
   0x00, 0xc0, 0x15, 0x00, 0x40, 0x08, 0x02, 0x00, 0x00, 0x43, 0x00, 0x00,
   0x80, 0xf0, 0x0e, 0x00, 0x00, 0xc0, 0x06, 0x00, 0x00, 0x18, 0x86, 0x00,
   0x00, 0x47, 0x00, 0x00, 0x00, 0x7a, 0x16, 0x01, 0x00, 0x70, 0xc7, 0x02,
   0x20, 0x08, 0x86, 0x00, 0x00, 0x4f, 0x00, 0x00, 0xc0, 0xe4, 0x2e, 0x01,
   0x00, 0xf8, 0x8f, 0x00, 0x20, 0x04, 0x02, 0x01, 0x00, 0x4f, 0x00, 0x00,
   0x40, 0x1a, 0x6d, 0x02, 0x00, 0xce, 0x8e, 0x0a, 0xa0, 0x00, 0x42, 0x01,
   0x00, 0x5f, 0x00, 0x00, 0xc0, 0xf7, 0xeb, 0x03, 0x00, 0xea, 0x0e, 0x03,
   0x10, 0x08, 0x02, 0x00, 0x00, 0x47, 0x00, 0x00, 0xa0, 0x5e, 0xba, 0x02,
   0x00, 0xe3, 0x1f, 0x16, 0x10, 0x08, 0x04, 0x02, 0x80, 0x4f, 0x00, 0x00,
   0xc0, 0xf8, 0x3f, 0x03, 0x80, 0xe7, 0x1e, 0x0d, 0x80, 0x00, 0x42, 0x02,
   0x00, 0x27, 0x00, 0x00, 0xa0, 0xb3, 0xcd, 0x05, 0x80, 0xf5, 0x1a, 0x0c,
   0x48, 0x00, 0x42, 0x02, 0x80, 0x47, 0x00, 0x00, 0xa0, 0xe0, 0x0f, 0x03,
   0x80, 0xf5, 0x1c, 0x0d, 0x08, 0x08, 0x02, 0x00, 0x00, 0x43, 0x00, 0x00,
   0x60, 0xa8, 0x15, 0x0a, 0x80, 0xe7, 0x1f, 0x16, 0x08, 0x08, 0x02, 0x00,
   0x00, 0x47, 0x00, 0x00, 0x40, 0xe8, 0x17, 0x0a, 0x00, 0x6b, 0x0f, 0x16,
   0x08, 0x08, 0x8a, 0x04, 0x00, 0x56, 0x00, 0x00, 0x10, 0xf8, 0x0f, 0x08,
   0x00, 0xe6, 0x06, 0x03, 0x88, 0x0c, 0x06, 0x04, 0x00, 0x36, 0x00, 0x00,
   0x90, 0xf0, 0x1f, 0x09, 0x00, 0xdc, 0x1e, 0x05, 0x08, 0x02, 0x08, 0x00,
   0x00, 0x14, 0x00, 0x00, 0x10, 0xe0, 0x05, 0x08, 0x00, 0xf8, 0xcf, 0x00,
   0x08, 0x08, 0x12, 0x04, 0x00, 0x74, 0x00, 0x00, 0x10, 0xc4, 0x47, 0x08,
   0x00, 0xe0, 0x06, 0x01, 0x00, 0x01, 0x10, 0x00, 0x00, 0x34, 0x00, 0x00,
   0x50, 0xe3, 0xc7, 0x0a, 0x00, 0xc0, 0x96, 0x00, 0x98, 0x08, 0x20, 0x03,
   0x00, 0x70, 0x00, 0x00, 0x10, 0xc3, 0x8a, 0x08, 0x00, 0x80, 0x11, 0x00,
   0xa8, 0x00, 0xa4, 0x04, 0x00, 0x70, 0x00, 0x00, 0x50, 0x51, 0xc2, 0x0a,
   0x00, 0x00, 0x08, 0x00, 0x44, 0xa1, 0xc0, 0x04, 0x00, 0x72, 0x00, 0x00,
   0x10, 0x43, 0x86, 0x0a, 0x00, 0x00, 0x00, 0x00, 0x00, 0xa0, 0x20, 0x02,
   0x00, 0x78, 0x00, 0x00, 0x60, 0x60, 0x42, 0x02, 0x00, 0x00, 0x00, 0x00,
   0x04, 0xa0, 0x00, 0x02, 0x00, 0x76, 0x00, 0x00, 0xe0, 0x62, 0x46, 0x07,
   0x00, 0x00, 0x00, 0x00, 0x04, 0xa0, 0x01, 0x00, 0x00, 0x44, 0x00, 0x00,
   0x20, 0x40, 0x42, 0x0e, 0x00, 0x00, 0x00, 0x00, 0x8c, 0x60, 0x21, 0x06,
   0x00, 0x56, 0x00, 0x00, 0xa0, 0xc0, 0x42, 0x0d, 0x00, 0x00, 0x00, 0x00,
   0x40, 0x41, 0xd1, 0x04, 0x00, 0x72, 0x00, 0x00, 0xb0, 0x01, 0x00, 0x05,
   0x00, 0x00, 0x08, 0x00, 0x84, 0xe0, 0x41, 0x04, 0x00, 0xd1, 0x00, 0x00,
   0x40, 0x00, 0x00, 0x06, 0x00, 0x80, 0x2d, 0x00, 0x40, 0xa8, 0x25, 0x04,
   0x00, 0xd1, 0x00, 0x00, 0x60, 0xf1, 0x47, 0x0b, 0x00, 0xc0, 0x8f, 0x00,
   0x40, 0x02, 0x48, 0x04, 0x00, 0xb5, 0x00, 0x00, 0x50, 0x07, 0xc0, 0x02,
   0x00, 0xe0, 0x1f, 0x02, 0x88, 0x00, 0x20, 0x00, 0x00, 0xa2, 0x00, 0x00,
   0xd0, 0x02, 0x40, 0x0b, 0x00, 0xd8, 0x5d, 0x00, 0x88, 0x00, 0x20, 0x02,
   0x00, 0xa2, 0x01, 0x00, 0xb0, 0x02, 0x80, 0x09, 0x00, 0xd0, 0x53, 0x01,
   0x00, 0x01, 0x20, 0x02, 0x80, 0x82, 0x01, 0x00, 0xa0, 0x01, 0xc0, 0x05,
   0x00, 0xea, 0xcb, 0x0c, 0x08, 0x01, 0x20, 0x02, 0x00, 0xc2, 0x02, 0x00,
   0xa0, 0x03, 0xc0, 0x03, 0x00, 0xef, 0x1f, 0x17, 0x10, 0x01, 0x20, 0x00,
   0x80, 0x82, 0x03, 0x00, 0x40, 0x03, 0x40, 0x02, 0x80, 0xed, 0x0d, 0x0d,
   0x20, 0x01, 0x90, 0x01, 0x40, 0x02, 0x03, 0x00, 0x40, 0x03, 0xc0, 0x02,
   0x80, 0xfd, 0x1f, 0x1c, 0x00, 0x03, 0x10, 0x01, 0xc0, 0x12, 0x07, 0x00,
   0x40, 0x05, 0xa0, 0x02, 0x80, 0xef, 0x17, 0x3e, 0x20, 0x02, 0x18, 0x00,
   0x60, 0x05, 0x05, 0x00, 0x40, 0x05, 0xb0, 0x02, 0x80, 0xfd, 0x1d, 0x1d,
   0x20, 0x02, 0x88, 0x00, 0x60, 0x86, 0x06, 0x00, 0x40, 0x0b, 0xd0, 0x02,
   0x00, 0xf5, 0x1b, 0x1b, 0x60, 0x07, 0xe8, 0x00, 0xa0, 0x0c, 0x0e, 0x00,
   0x80, 0x1b, 0xd0, 0x01, 0x00, 0xed, 0x4f, 0x05, 0xc0, 0x04, 0xc4, 0x00,
   0x30, 0x04, 0x0e, 0x00, 0x80, 0x66, 0x6f, 0x01, 0x00, 0xd8, 0x6b, 0x08,
   0xc0, 0x08, 0xc4, 0x00, 0x58, 0x04, 0x1c, 0x00, 0x80, 0x5f, 0xf9, 0x01,
   0x00, 0xd0, 0x59, 0x02, 0xc0, 0x05, 0x6a, 0x00, 0x18, 0x0c, 0x3c, 0x00,
   0x80, 0xef, 0xfe, 0x01, 0x00, 0xd0, 0x1f, 0x02, 0xc0, 0x2c, 0x72, 0x00,
   0x1c, 0x0c, 0x38, 0x00, 0x00, 0xdd, 0x37, 0x01, 0x00, 0xc0, 0x8f, 0x00,
   0xc0, 0xf2, 0x65, 0x00, 0x00, 0x0d, 0x70, 0x00, 0x00, 0x71, 0x8e, 0x00,
   0x00, 0x80, 0x2d, 0x00, 0x80, 0xd4, 0x69, 0x00, 0x00, 0x0d, 0xe0, 0x00,
   0x00, 0xc5, 0xa3, 0x00, 0x00, 0x00, 0x18, 0x00, 0x80, 0x09, 0x2a, 0x00,
   0x00, 0x0a, 0x00, 0x00, 0x00, 0x13, 0xd4, 0x00, 0x00, 0x00, 0x00, 0x00,
   0x00, 0xa3, 0x30, 0x00, 0x00, 0x0b, 0x00, 0x00, 0x00, 0x90, 0x00, 0x00,
   0x00, 0x00, 0x00, 0x00, 0x00, 0x0b, 0x1c, 0x00, 0x00, 0x06, 0x00, 0x00,
   0x00, 0x12, 0x4a, 0x00, 0x00, 0x00, 0x00, 0x00, 0x00, 0x16, 0x1b, 0x00,
   0x00, 0x07, 0x00, 0x00, 0x00, 0xf8, 0x3a, 0x00, 0x00, 0x00, 0x00, 0x00,
   0x00, 0xf4, 0x04, 0x00, 0x00, 0x03, 0x00, 0x00, 0x00, 0xb8, 0x0f, 0x00,
   0x00, 0x00, 0x00, 0x00, 0x00, 0xe8, 0x03, 0x00, 0x00, 0x03, 0x00, 0x00,
   0x00, 0xe0, 0x0f, 0x00, 0x00, 0x00, 0x00, 0x00, 0x00, 0x00, 0x00, 0x00,
   0x00, 0x00, 0x00, 0x00, 0x00, 0x00, 0x00, 0x00, 0x00, 0x00, 0x00, 0x00,
   0x00, 0x00, 0x00, 0x00, 0x00, 0x00, 0x00, 0x00, 0x00, 0x00, 0x00, 0x00,
   0x00, 0x00, 0x00, 0x00 };
