#define Untitled_jpg_width 128
#define Untitled_jpg_height 64
static unsigned char Untitled_jpg_bits[] = {
   0x00, 0x00, 0x00, 0x00, 0x00, 0x00, 0x00, 0x00, 0x00, 0x00, 0x00, 0xfa,
   0x7f, 0x01, 0x00, 0x00, 0x00, 0x00, 0x00, 0x00, 0x00, 0x00, 0x00, 0x00,
   0x00, 0x00, 0xe0, 0xaf, 0xc0, 0x0f, 0x00, 0x00, 0x00, 0x00, 0x00, 0x00,
   0x00, 0x00, 0x00, 0x00, 0x00, 0x00, 0x3c, 0x00, 0xfe, 0x00, 0x00, 0x00,
   0x00, 0x00, 0x00, 0x00, 0x00, 0x00, 0x00, 0x00, 0x00, 0x80, 0x07, 0xc0,
   0x1f, 0x00, 0x00, 0x00, 0x00, 0x00, 0x00, 0x00, 0x00, 0x00, 0x00, 0x00,
   0x00, 0xc0, 0x00, 0xfc, 0x01, 0x00, 0x00, 0x00, 0x00, 0x00, 0x00, 0x00,
   0x00, 0x00, 0x00, 0x00, 0x00, 0x30, 0x00, 0x77, 0x00, 0x00, 0x00, 0x00,
   0x00, 0x00, 0x00, 0x00, 0x00, 0x00, 0x00, 0x00, 0x00, 0x18, 0xe0, 0x08,
   0x00, 0x00, 0x00, 0x00, 0x00, 0x00, 0x00, 0x00, 0x00, 0x00, 0x00, 0x00,
   0x00, 0x06, 0x18, 0x06, 0x00, 0x00, 0x00, 0x00, 0x00, 0x00, 0x00, 0x00,
   0x00, 0x00, 0x00, 0x00, 0x00, 0x02, 0x0c, 0x01, 0x00, 0x00, 0x00, 0x00,
   0x00, 0x00, 0x00, 0x00, 0x00, 0x00, 0x00, 0x00, 0x80, 0x01, 0x03, 0x01,
   0x00, 0x00, 0x00, 0x00, 0x00, 0x00, 0x00, 0x00, 0x00, 0x00, 0x00, 0x00,
   0x80, 0x80, 0x81, 0x00, 0x00, 0x00, 0x00, 0x00, 0x00, 0x00, 0x00, 0x00,
   0x00, 0x00, 0x00, 0x00, 0x40, 0x40, 0x80, 0x00, 0x00, 0x00, 0x00, 0x00,
   0x00, 0x00, 0x00, 0x00, 0x00, 0x00, 0x00, 0x00, 0x20, 0x30, 0x80, 0x01,
   0x00, 0x00, 0x00, 0x00, 0x00, 0x00, 0x00, 0x00, 0x00, 0x00, 0x00, 0x00,
   0x20, 0x08, 0x00, 0x03, 0x00, 0x00, 0x00, 0x00, 0x00, 0x00, 0x00, 0x00,
   0x00, 0x50, 0x00, 0x00, 0x10, 0x04, 0x00, 0x06, 0x00, 0x00, 0x00, 0x00,
   0x00, 0x00, 0x00, 0x00, 0x40, 0xf8, 0x00, 0x00, 0x08, 0x03, 0x00, 0x18,
   0x00, 0x00, 0x00, 0x00, 0x00, 0x00, 0x00, 0x00, 0xb0, 0xeb, 0x00, 0x00,
   0x86, 0x00, 0x00, 0x60, 0x00, 0x00, 0x00, 0x60, 0x00, 0x00, 0x00, 0x00,
   0x0c, 0x4e, 0x03, 0x00, 0x63, 0x00, 0x00, 0x80, 0x03, 0x00, 0x00, 0x90,
   0x00, 0x00, 0x00, 0x00, 0x02, 0x0e, 0x03, 0x80, 0x19, 0x00, 0x00, 0x00,
   0x1c, 0x00, 0x00, 0x88, 0x00, 0x00, 0x00, 0x80, 0x01, 0x18, 0x07, 0x60,
   0x04, 0x00, 0x20, 0x00, 0x61, 0x00, 0x00, 0x84, 0x00, 0x00, 0x00, 0x40,
   0x90, 0x60, 0x04, 0x18, 0x03, 0x40, 0x00, 0x00, 0x90, 0x00, 0x00, 0x82,
   0x00, 0x00, 0x00, 0x20, 0x20, 0x80, 0x08, 0xc6, 0x00, 0x08, 0x00, 0x80,
   0x4f, 0x01, 0x80, 0x81, 0x00, 0x00, 0x00, 0x38, 0x20, 0x00, 0xe8, 0x19,
   0x80, 0x12, 0x11, 0x38, 0xe0, 0x03, 0xc0, 0x80, 0x00, 0x00, 0x00, 0x16,
   0x60, 0x00, 0x1a, 0x04, 0x00, 0x00, 0x00, 0x9e, 0x00, 0x00, 0x30, 0x40,
   0x00, 0x00, 0x00, 0x01, 0xe0, 0x01, 0xd8, 0x00, 0xfc, 0x3f, 0xda, 0x5f,
   0xff, 0xff, 0x0f, 0x40, 0x00, 0x00, 0x80, 0x00, 0xe0, 0x0b, 0x30, 0xc0,
   0x0b, 0xe0, 0xe0, 0x00, 0x00, 0x00, 0x00, 0x20, 0x00, 0x00, 0xc0, 0xe0,
   0xff, 0x20, 0x40, 0x38, 0x00, 0x00, 0xc0, 0x01, 0x00, 0x00, 0x00, 0x10,
   0x00, 0x00, 0x20, 0x08, 0x00, 0xff, 0xf6, 0x06, 0x00, 0x00, 0x00, 0x00,
   0x00, 0x00, 0x00, 0x10, 0x00, 0x00, 0x20, 0x00, 0x02, 0xd4, 0x21, 0x00,
   0x00, 0x00, 0x00, 0x00, 0x00, 0x00, 0x00, 0x00, 0x00, 0x00, 0x20, 0x00,
   0x00, 0x00, 0x20, 0x08, 0x00, 0x00, 0x00, 0x00, 0x00, 0x00, 0x00, 0x08,
   0x00, 0x00, 0x60, 0x00, 0x00, 0x02, 0xa1, 0x12, 0x00, 0x00, 0x00, 0x00,
   0x00, 0xe8, 0x0b, 0x08, 0x00, 0x00, 0x20, 0x00, 0x00, 0x00, 0x21, 0x20,
   0x00, 0x00, 0x00, 0x00, 0x80, 0x03, 0xf0, 0x0d, 0xe8, 0xff, 0x37, 0x00,
   0x00, 0x00, 0x00, 0x80, 0x00, 0x00, 0x30, 0x00, 0x78, 0x00, 0x00, 0x02,
   0x0c, 0x00, 0x08, 0x00, 0x00, 0x00, 0x20, 0x00, 0x01, 0x80, 0xff, 0x01,
   0x07, 0x00, 0x00, 0x00, 0x30, 0x00, 0x10, 0x00, 0x00, 0x80, 0x00, 0x00,
   0x00, 0xf8, 0x02, 0xfe, 0xff, 0x03, 0x00, 0x00, 0x20, 0x20, 0x10, 0x00,
   0x00, 0x00, 0x20, 0x00, 0x02, 0x1f, 0x00, 0x00, 0x00, 0x01, 0x00, 0x00,
   0x20, 0x80, 0x10, 0x00, 0x00, 0x00, 0x21, 0x00, 0xfc, 0x01, 0x00, 0x00,
   0x40, 0x00, 0x00, 0x00, 0x20, 0x00, 0x40, 0x00, 0x00, 0x00, 0x20, 0x00,
   0x7c, 0x00, 0x00, 0x00, 0x25, 0x00, 0x00, 0x00, 0x30, 0x00, 0x08, 0x01,
   0x00, 0x00, 0x21, 0x80, 0x80, 0xc3, 0x00, 0x00, 0x18, 0x00, 0x00, 0x00,
   0x08, 0x00, 0x04, 0x00, 0x00, 0x04, 0x22, 0x40, 0x00, 0x0e, 0x09, 0x00,
   0x06, 0x00, 0x00, 0x00, 0x1c, 0x00, 0x00, 0x00, 0x02, 0x02, 0x21, 0x20,
   0x00, 0x30, 0xa0, 0xce, 0xff, 0x01, 0x00, 0x00, 0xa0, 0xfb, 0x85, 0x00,
   0x00, 0x00, 0x00, 0x00, 0x00, 0xf0, 0x01, 0x80, 0xcb, 0x00, 0x00, 0x00,
   0x00, 0x00, 0x08, 0x00, 0x02, 0x80, 0x21, 0x08, 0x00, 0x00, 0x77, 0x7b,
   0x30, 0x00, 0x00, 0x00, 0x00, 0x00, 0x08, 0x00, 0x00, 0x00, 0x10, 0x04,
   0x00, 0x00, 0x1f, 0x00, 0x08, 0x00, 0x00, 0x00, 0x00, 0x00, 0x90, 0x00,
   0x01, 0x00, 0x70, 0x02, 0x00, 0x00, 0x62, 0x22, 0x07, 0x08, 0x00, 0x00,
   0x00, 0x00, 0x10, 0x20, 0x04, 0x00, 0x20, 0x02, 0x00, 0x00, 0xcf, 0xdf,
   0x01, 0x07, 0x00, 0x00, 0x00, 0x00, 0x10, 0x20, 0x00, 0x10, 0x10, 0x02,
   0x00, 0x00, 0x08, 0xf0, 0xc1, 0x02, 0x00, 0x00, 0x00, 0x00, 0x08, 0x20,
   0x00, 0x38, 0xf0, 0x3e, 0x00, 0x00, 0x00, 0x00, 0x3e, 0x01, 0x00, 0x00,
   0x00, 0x00, 0x10, 0x40, 0x01, 0x3e, 0x10, 0xe0, 0x01, 0x00, 0x00, 0x04,
   0x88, 0x00, 0x00, 0x00, 0x00, 0x00, 0x10, 0x00, 0x02, 0x1f, 0xfa, 0x07,
   0x3f, 0x20, 0x03, 0x28, 0x61, 0x00, 0x00, 0x00, 0x00, 0x00, 0x60, 0x00,
   0xc8, 0x08, 0x04, 0x78, 0xe0, 0xdf, 0x00, 0x00, 0xf0, 0x01, 0x06, 0x0d,
   0x00, 0x00, 0x40, 0x00, 0x70, 0x06, 0x04, 0x00, 0x0f, 0xf0, 0x01, 0x0c,
   0x0c, 0xfe, 0xf8, 0x10, 0x00, 0x00, 0x40, 0x00, 0xe0, 0x01, 0x12, 0x00,
   0xe0, 0x85, 0x5f, 0x00, 0x01, 0x00, 0x00, 0x20, 0x00, 0x00, 0x80, 0x01,
   0xc0, 0x00, 0xf0, 0x00, 0x00, 0xfc, 0x03, 0x80, 0x00, 0x00, 0x00, 0x40,
   0x00, 0x00, 0x00, 0x37, 0xe0, 0x82, 0x98, 0x0f, 0x00, 0x00, 0x00, 0x20,
   0x00, 0x00, 0x00, 0x40, 0x00, 0x00, 0x00, 0x1c, 0x40, 0x02, 0x19, 0x0c,
   0x00, 0x00, 0x00, 0x10, 0x00, 0xc0, 0x02, 0xc0, 0x00, 0x00, 0x00, 0x10,
   0x10, 0x8a, 0x18, 0x30, 0x00, 0x00, 0x00, 0x08, 0x40, 0x1f, 0xe8, 0x40,
   0x00, 0x00, 0x00, 0x30, 0x00, 0x50, 0x0a, 0xc0, 0x00, 0x00, 0x00, 0xf0,
   0x5f, 0x00, 0x00, 0x33, 0x00, 0x00, 0x00, 0x40, 0x02, 0x54, 0x04, 0x00,
   0x07, 0x00, 0x00, 0x0e, 0x00, 0x00, 0x00, 0x04, 0x00, 0x00, 0x00, 0x80,
   0x01, 0x62, 0x0e, 0x00, 0x78, 0x00, 0xe8, 0x01, 0x00, 0x00, 0x00, 0x00,
   0x00, 0x00, 0x00, 0x00, 0x4e, 0xb9, 0x04, 0x00, 0x80, 0xff, 0x1f, 0x00,
   0x00, 0x00, 0x00, 0x00, 0x00, 0x00, 0x00, 0x00, 0x18, 0x08, 0x07, 0x00,
   0x00, 0x00, 0x00, 0x00, 0x00, 0x00, 0x00, 0x00, 0x00, 0x00, 0x00, 0x00,
   0x60, 0x06, 0x02, 0x00, 0x00, 0x00, 0x00, 0x00, 0x00, 0x00, 0x00, 0x00,
   0x00, 0x00, 0x00, 0x00, 0x80, 0x01, 0x02, 0x00, 0x00, 0x00, 0x00, 0x00,
   0x00, 0x00, 0x00, 0x00 };
