#define 1526826606_bmp_width 64
#define 1526826606_bmp_height 64
static unsigned char 1526826606_bmp_bits[] = {
   0x80, 0xff, 0xff, 0xff, 0xff, 0xff, 0xff, 0x01, 0xe0, 0xff, 0xff, 0xff,
   0xff, 0xff, 0xff, 0x07, 0xf8, 0x00, 0x00, 0x00, 0x00, 0x00, 0x00, 0x1f,
   0x3c, 0x00, 0x00, 0x00, 0x00, 0x00, 0x00, 0x3c, 0x1c, 0x00, 0x00, 0x00,
   0x00, 0x00, 0x00, 0x38, 0x0e, 0x00, 0x00, 0x00, 0x00, 0x00, 0x00, 0x70,
   0x06, 0x30, 0x00, 0x7e, 0x00, 0xc0, 0x0f, 0x60, 0x07, 0x78, 0x80, 0xff,
   0x03, 0xf0, 0x3f, 0xe0, 0x03, 0xf8, 0xc0, 0xff, 0x07, 0xfc, 0x7f, 0xc0,
   0x03, 0x78, 0xe0, 0xff, 0x0f, 0xfe, 0xff, 0xc0, 0x03, 0x78, 0xe0, 0xff,
   0x1f, 0xff, 0xff, 0xc1, 0x03, 0x78, 0xf0, 0xff, 0x3f, 0xff, 0xff, 0xc1,
   0x03, 0xff, 0xf1, 0xff, 0xff, 0xff, 0xff, 0xc1, 0x03, 0xff, 0xf3, 0xff,
   0xff, 0xff, 0xff, 0xc3, 0x03, 0xfe, 0xf9, 0xff, 0xff, 0xff, 0xff, 0xc3,
   0x03, 0xfe, 0xf9, 0xff, 0xff, 0xff, 0xff, 0xc3, 0x03, 0xfc, 0xf8, 0xff,
   0xff, 0xff, 0xff, 0xc3, 0x03, 0xfc, 0xf8, 0xff, 0xff, 0xff, 0xff, 0xc3,
   0x03, 0xfc, 0xf0, 0xff, 0xff, 0xff, 0xff, 0xc3, 0x03, 0xfc, 0xf0, 0xff,
   0xff, 0xff, 0xff, 0xc3, 0x03, 0xfe, 0xf1, 0xff, 0xff, 0xff, 0xff, 0xc1,
   0x03, 0xff, 0xf3, 0xff, 0xff, 0xff, 0xff, 0xc1, 0x03, 0xfc, 0xe0, 0xff,
   0xff, 0xff, 0xff, 0xc0, 0x03, 0x78, 0xe0, 0xff, 0xff, 0xff, 0xff, 0xc0,
   0x03, 0x78, 0xc0, 0xff, 0xff, 0xff, 0x7f, 0xc0, 0x03, 0x78, 0x80, 0xff,
   0xff, 0xff, 0x7f, 0xc0, 0x03, 0x78, 0x80, 0xff, 0xff, 0xff, 0x3f, 0xc0,
   0x03, 0x78, 0x00, 0xff, 0xff, 0xff, 0x1f, 0xc0, 0x03, 0x78, 0x00, 0xfe,
   0xff, 0xff, 0x1f, 0xc0, 0x03, 0xf8, 0x00, 0xfc, 0xff, 0xff, 0x0f, 0xc0,
   0x03, 0xfc, 0x00, 0xfc, 0xff, 0xff, 0x07, 0xc0, 0x03, 0xfc, 0x00, 0xf8,
   0xff, 0xff, 0x03, 0xc0, 0x03, 0xfc, 0x00, 0xf0, 0xff, 0xff, 0x01, 0xc0,
   0x03, 0xfe, 0x01, 0xe0, 0xff, 0xff, 0x00, 0xc0, 0x03, 0xfe, 0x01, 0xc0,
   0xff, 0x7f, 0x00, 0xc0, 0x03, 0xff, 0x03, 0x80, 0xff, 0x3f, 0x00, 0xc0,
   0x03, 0xff, 0x03, 0x00, 0xff, 0x1f, 0x00, 0xc0, 0x03, 0xff, 0x03, 0x00,
   0xfe, 0x0f, 0x00, 0xc0, 0x83, 0xff, 0x07, 0x00, 0xfc, 0x07, 0x00, 0xc0,
   0xc3, 0xff, 0x0f, 0x00, 0xf8, 0x03, 0x00, 0xc0, 0xc3, 0xff, 0x0f, 0x00,
   0xf0, 0x01, 0x00, 0xc0, 0xc3, 0xff, 0x0f, 0x00, 0xe0, 0x00, 0x00, 0xc0,
   0xc3, 0xff, 0x0f, 0x00, 0x40, 0x00, 0x00, 0xc0, 0x03, 0xfc, 0x0f, 0x00,
   0x00, 0x00, 0x00, 0xc0, 0x03, 0x00, 0x00, 0x00, 0x00, 0x00, 0x00, 0xc0,
   0x03, 0x00, 0x00, 0x00, 0x00, 0x00, 0x00, 0xc0, 0x03, 0x0e, 0x00, 0x00,
   0x00, 0x3c, 0xf0, 0xc0, 0x03, 0x7f, 0xff, 0xef, 0x3f, 0xfe, 0xf8, 0xc3,
   0x83, 0x71, 0x0c, 0x83, 0x31, 0xc3, 0x0c, 0xc3, 0xc3, 0x60, 0x0c, 0x83,
   0x2c, 0xc3, 0x0c, 0xc3, 0xc3, 0x60, 0x0c, 0x83, 0x2c, 0xc7, 0x1c, 0xc3,
   0xc3, 0x20, 0xfc, 0x83, 0x2f, 0x3e, 0xf8, 0xc0, 0xc3, 0x00, 0xfc, 0x83,
   0x0f, 0x7c, 0xf0, 0xc1, 0xc3, 0x40, 0x0c, 0x83, 0x2c, 0xc3, 0x0c, 0xc3,
   0xc3, 0x60, 0x0c, 0x83, 0x2c, 0xc3, 0x0c, 0xc3, 0xc3, 0x60, 0x0c, 0x83,
   0x20, 0xc3, 0x0c, 0xc3, 0x87, 0x33, 0x0c, 0xc7, 0x3f, 0xe7, 0x9c, 0xe3,
   0x06, 0x1f, 0xff, 0xef, 0x3f, 0x7f, 0xfc, 0x61, 0x0e, 0x00, 0x00, 0x00,
   0x00, 0x00, 0x00, 0x70, 0x1c, 0x00, 0x00, 0x00, 0x00, 0x00, 0x00, 0x38,
   0x3c, 0x00, 0x00, 0x00, 0x00, 0x00, 0x00, 0x3c, 0xf8, 0x00, 0x00, 0x00,
   0x00, 0x00, 0x00, 0x1f, 0xe0, 0xff, 0xff, 0xff, 0xff, 0xff, 0xff, 0x07,
   0x80, 0xff, 0xff, 0xff, 0xff, 0xff, 0xff, 0x01 };
