#define 247_2476948_jpg_freeuse_library_mario_svg_free_clipart_bmp_width 128
#define 247_2476948_jpg_freeuse_library_mario_svg_free_clipart_bmp_height 64
static unsigned char 247_2476948_jpg_freeuse_library_mario_svg_free_clipart_bmp_bits[] = {
   0x00, 0x00, 0x00, 0x00, 0x00, 0x00, 0x00, 0x00, 0x00, 0x00, 0x00, 0x00,
   0x00, 0x00, 0x00, 0x00, 0x00, 0x00, 0x00, 0x00, 0x00, 0x00, 0x00, 0x00,
   0x00, 0x00, 0x00, 0x00, 0x00, 0x00, 0x00, 0x00, 0x00, 0x00, 0x00, 0x00,
   0x00, 0x00, 0x00, 0x00, 0x00, 0x00, 0x00, 0x00, 0x00, 0x00, 0x00, 0x00,
   0x00, 0x00, 0x00, 0x00, 0x00, 0x00, 0x80, 0xfe, 0xff, 0x05, 0x00, 0x00,
   0x00, 0x00, 0x00, 0x00, 0x00, 0x00, 0x00, 0x00, 0x00, 0x00, 0xf8, 0xaf,
   0xea, 0xff, 0x00, 0x00, 0x00, 0x00, 0x00, 0x00, 0x00, 0x00, 0x00, 0x00,
   0x00, 0xc0, 0xff, 0x81, 0xff, 0xc0, 0x0f, 0x00, 0x00, 0x00, 0x00, 0x00,
   0x00, 0x00, 0x00, 0x00, 0xe0, 0xff, 0x82, 0xff, 0x80, 0x07, 0x7c, 0x00,
   0x00, 0x00, 0x00, 0x00, 0x00, 0x00, 0x00, 0x00, 0x7e, 0x01, 0x00, 0x38,
   0x00, 0x0e, 0xe0, 0x01, 0x00, 0x00, 0x00, 0x00, 0x00, 0x00, 0x00, 0xe0,
   0x07, 0x00, 0x00, 0x30, 0x02, 0x18, 0x00, 0x0f, 0x00, 0x00, 0x00, 0x00,
   0x00, 0x00, 0x00, 0x7c, 0x00, 0x00, 0xfc, 0xff, 0x07, 0x30, 0x00, 0x3c,
   0x00, 0x00, 0x00, 0x00, 0x00, 0x00, 0x00, 0x0f, 0x00, 0xf0, 0xd7, 0x03,
   0x1d, 0x70, 0x00, 0x70, 0x00, 0x00, 0x00, 0x00, 0x00, 0x00, 0xc0, 0x03,
   0x00, 0x1e, 0x06, 0x06, 0x70, 0x60, 0x00, 0xc0, 0x01, 0x00, 0x00, 0x00,
   0x00, 0x00, 0xf0, 0x00, 0xc0, 0x01, 0x03, 0xdc, 0xf3, 0x67, 0x00, 0xc0,
   0x07, 0x00, 0x00, 0x00, 0x00, 0x00, 0x38, 0x5c, 0x73, 0xff, 0x01, 0x60,
   0x2c, 0x7c, 0x00, 0x70, 0x0e, 0x00, 0x00, 0x00, 0x00, 0x00, 0x1c, 0x03,
   0x9c, 0x1f, 0x00, 0x80, 0x17, 0xe0, 0x00, 0x1c, 0x1e, 0x00, 0x00, 0x00,
   0x00, 0x00, 0x4e, 0x00, 0x86, 0x87, 0xff, 0x00, 0x3f, 0x80, 0x03, 0x07,
   0x3b, 0x00, 0x00, 0x00, 0x00, 0x00, 0x27, 0x00, 0xc3, 0x47, 0x00, 0x06,
   0x7f, 0x00, 0xc3, 0xc1, 0x71, 0x00, 0x00, 0x00, 0x00, 0x00, 0x23, 0x80,
   0x81, 0x63, 0x54, 0x18, 0xfe, 0x00, 0xe6, 0xd5, 0xe0, 0xff, 0x00, 0x00,
   0x00, 0x00, 0x13, 0xc0, 0xc0, 0x27, 0x01, 0x31, 0xff, 0x03, 0xfc, 0x7f,
   0x00, 0xc0, 0x01, 0x00, 0x00, 0x80, 0x13, 0x40, 0x60, 0x64, 0xfc, 0xfc,
   0xff, 0x03, 0x1c, 0x30, 0x00, 0x80, 0x01, 0x00, 0x00, 0x80, 0x1b, 0x60,
   0x30, 0xc0, 0xcd, 0x97, 0xff, 0x03, 0x18, 0x30, 0x00, 0x80, 0x01, 0x00,
   0x00, 0x80, 0x13, 0x20, 0x30, 0x00, 0xff, 0x01, 0xfc, 0x03, 0x18, 0x30,
   0x00, 0xe0, 0x03, 0x00, 0x00, 0x00, 0x13, 0x30, 0x18, 0x00, 0x70, 0x00,
   0xf8, 0x0f, 0x18, 0x18, 0xe0, 0x7f, 0x0f, 0x00, 0x00, 0x00, 0x23, 0x30,
   0x18, 0x00, 0x30, 0x00, 0xf0, 0x7b, 0xf0, 0x1b, 0x00, 0x00, 0x0c, 0x00,
   0x00, 0x00, 0x27, 0x30, 0x18, 0x00, 0x18, 0x00, 0xf8, 0xf3, 0x70, 0x3f,
   0x00, 0x00, 0x0c, 0x00, 0x00, 0x00, 0xc7, 0x30, 0xf8, 0xf0, 0x1a, 0x00,
   0xf0, 0xfb, 0x61, 0x30, 0x00, 0x00, 0x0f, 0x00, 0x00, 0x00, 0x06, 0x3f,
   0x3e, 0x97, 0x1f, 0x00, 0xf8, 0xf9, 0xe3, 0x30, 0xf0, 0xff, 0x0f, 0x00,
   0x00, 0x00, 0x0e, 0x20, 0x0f, 0xc9, 0x19, 0x00, 0x78, 0x1c, 0xc2, 0x60,
   0x00, 0x14, 0x1c, 0x00, 0x00, 0x00, 0x0c, 0x60, 0x8f, 0x91, 0x1f, 0x00,
   0x3c, 0x0c, 0xc6, 0x60, 0x00, 0x00, 0x0c, 0x00, 0x00, 0x00, 0x1c, 0x40,
   0x0f, 0x21, 0x38, 0x00, 0x7e, 0x06, 0xc6, 0xe0, 0x00, 0x00, 0x07, 0x00,
   0x00, 0x00, 0x38, 0xc0, 0x1e, 0x03, 0x7e, 0x00, 0x3f, 0x07, 0xc2, 0x60,
   0xf0, 0xff, 0x03, 0x00, 0x00, 0x00, 0x30, 0x80, 0x39, 0x1c, 0xe0, 0xf7,
   0x3f, 0x87, 0xe3, 0x70, 0x00, 0x3c, 0x00, 0x00, 0x00, 0x00, 0x70, 0x00,
   0x13, 0xe0, 0x3f, 0xff, 0x9f, 0xcf, 0x60, 0x70, 0x00, 0x38, 0x00, 0x00,
   0x00, 0x00, 0xe0, 0x00, 0x1e, 0x00, 0x00, 0xff, 0xe7, 0x3f, 0x70, 0xf0,
   0x00, 0x70, 0x00, 0x00, 0x00, 0x00, 0xc0, 0x01, 0x0c, 0x00, 0xc0, 0xff,
   0xf7, 0x02, 0x1c, 0xd8, 0x03, 0x70, 0x00, 0x00, 0x00, 0x00, 0x80, 0x03,
   0x38, 0x50, 0xf8, 0xff, 0x03, 0x00, 0x1e, 0x1c, 0x7f, 0x1f, 0x00, 0x00,
   0x00, 0x00, 0x00, 0x07, 0xe0, 0xff, 0xf3, 0xff, 0x00, 0xc0, 0xff, 0x0f,
   0xf0, 0x0f, 0x00, 0x00, 0x00, 0x00, 0x00, 0x0e, 0xc0, 0x01, 0xe7, 0x07,
   0x00, 0xf8, 0x00, 0xfe, 0x03, 0x06, 0x00, 0x00, 0x00, 0x00, 0xe0, 0x7f,
   0x00, 0x0f, 0x18, 0x00, 0x00, 0x1e, 0x00, 0x80, 0x1f, 0x07, 0x00, 0x00,
   0x00, 0x00, 0xf0, 0xea, 0x83, 0xfb, 0x30, 0x00, 0x80, 0x0f, 0x00, 0x70,
   0xf8, 0x03, 0x00, 0x00, 0x00, 0xf0, 0x3f, 0x00, 0xcf, 0xe0, 0xff, 0x00,
   0xf0, 0x38, 0x00, 0x8e, 0xe7, 0x01, 0x00, 0x00, 0x00, 0x7e, 0x1c, 0x00,
   0xd8, 0x05, 0xc0, 0xff, 0x3f, 0xe0, 0x00, 0x61, 0xcc, 0x01, 0x00, 0x00,
   0x80, 0x07, 0x1c, 0x20, 0xf0, 0x3f, 0xfd, 0xa9, 0x02, 0xc0, 0x81, 0x81,
   0xf3, 0x00, 0x00, 0x00, 0xc0, 0x01, 0x1f, 0x40, 0x40, 0xf0, 0x0f, 0x00,
   0x00, 0x00, 0x07, 0x03, 0x74, 0x00, 0x00, 0x00, 0xc0, 0xe0, 0x39, 0xc0,
   0xc0, 0xc0, 0x01, 0x00, 0x00, 0x00, 0x1c, 0x06, 0x38, 0x00, 0x00, 0x00,
   0x60, 0x70, 0x70, 0xc0, 0x01, 0x80, 0x01, 0x00, 0x00, 0x00, 0xf0, 0x1c,
   0x1c, 0x00, 0x00, 0x00, 0x60, 0x18, 0xf8, 0xc0, 0x01, 0x80, 0x03, 0x00,
   0x00, 0x00, 0xc0, 0xf3, 0x07, 0x00, 0x00, 0x00, 0x60, 0x00, 0xcf, 0xeb,
   0x01, 0x00, 0x03, 0x00, 0x00, 0xf0, 0xc3, 0xbf, 0x03, 0x00, 0x00, 0x00,
   0x60, 0x80, 0x01, 0xfe, 0x00, 0x00, 0x07, 0x00, 0x00, 0x3e, 0xff, 0xe0,
   0x01, 0x00, 0x00, 0x00, 0x60, 0x80, 0x80, 0xff, 0x03, 0x00, 0x06, 0x00,
   0xc0, 0x07, 0xf0, 0x77, 0x00, 0x00, 0x00, 0x00, 0xe0, 0x00, 0xe0, 0x81,
   0x07, 0x00, 0x06, 0x00, 0xf8, 0x00, 0x80, 0x3f, 0x00, 0x00, 0x00, 0x00,
   0xc0, 0x00, 0x70, 0x00, 0x06, 0x00, 0x06, 0x80, 0x1f, 0x00, 0x80, 0x07,
   0x00, 0x00, 0x00, 0x00, 0xc0, 0x01, 0x18, 0x00, 0x0e, 0x00, 0x06, 0xfc,
   0x01, 0x00, 0xf0, 0x01, 0x00, 0x00, 0x00, 0x00, 0x80, 0x03, 0x08, 0x00,
   0x07, 0x00, 0xd6, 0x1f, 0x00, 0x00, 0x3c, 0x00, 0x00, 0x00, 0x00, 0x00,
   0x00, 0x07, 0x00, 0xe0, 0x03, 0x02, 0xff, 0x01, 0x00, 0xe0, 0x07, 0x00,
   0x00, 0x00, 0x00, 0x00, 0x00, 0x0e, 0x00, 0x5c, 0x00, 0x01, 0xff, 0xff,
   0xfa, 0x7f, 0x00, 0x00, 0x00, 0x00, 0x00, 0x00, 0x00, 0x3c, 0x00, 0x00,
   0x80, 0xc1, 0x01, 0xfa, 0x7f, 0x01, 0x00, 0x00, 0x00, 0x00, 0x00, 0x00,
   0x00, 0xf0, 0x00, 0x00, 0xe0, 0xff, 0x00, 0x00, 0x00, 0x00, 0x00, 0x00,
   0x00, 0x00, 0x00, 0x00, 0x00, 0xc0, 0x03, 0x00, 0xbc, 0x3f, 0x00, 0x00,
   0x00, 0x00, 0x00, 0x00, 0x00, 0x00, 0x00, 0x00, 0x00, 0x00, 0xff, 0xfb,
   0x0f, 0x00, 0x00, 0x00, 0x00, 0x00, 0x00, 0x00, 0x00, 0x00, 0x00, 0x00,
   0x00, 0x00, 0xf0, 0xff, 0x00, 0x00, 0x00, 0x00, 0x00, 0x00, 0x00, 0x00,
   0x00, 0x00, 0x00, 0x00, 0x00, 0x00, 0x00, 0x00, 0x00, 0x00, 0x00, 0x00,
   0x00, 0x00, 0x00, 0x00, 0x00, 0x00, 0x00, 0x00, 0x00, 0x00, 0x00, 0x00,
   0x00, 0x00, 0x00, 0x00, 0x00, 0x00, 0x00, 0x00, 0x00, 0x00, 0x00, 0x00,
   0x00, 0x00, 0x00, 0x00, 0x00, 0x00, 0x00, 0x00, 0x00, 0x00, 0x00, 0x00,
   0x00, 0x00, 0x00, 0x00 };
