#define Batman_003_eps_bmp_width 128
#define Batman_003_eps_bmp_height 64
static unsigned char Batman_003_eps_bmp_bits[] = {
   0x00, 0x00, 0x00, 0x00, 0x00, 0x20, 0x00, 0x00, 0x00, 0x00, 0x00, 0x00,
   0x00, 0x00, 0x00, 0x00, 0x00, 0x00, 0x00, 0x00, 0x00, 0xc0, 0x09, 0x00,
   0x00, 0x00, 0x00, 0x00, 0x00, 0x00, 0x00, 0x00, 0x00, 0x00, 0x00, 0x00,
   0x00, 0x80, 0x9f, 0x00, 0x00, 0x00, 0x00, 0x00, 0x00, 0x00, 0x00, 0x00,
   0x00, 0x00, 0x00, 0x00, 0x00, 0x00, 0x7f, 0x01, 0x00, 0x00, 0x00, 0x00,
   0x00, 0xf8, 0x0f, 0x00, 0x00, 0x00, 0x00, 0x00, 0x00, 0x00, 0xfe, 0x03,
   0x00, 0x00, 0x00, 0x00, 0xfe, 0xff, 0x01, 0x00, 0x00, 0x00, 0x00, 0xfe,
   0x1f, 0x00, 0xfe, 0x07, 0x00, 0x00, 0x00, 0xff, 0xff, 0x3f, 0x00, 0x00,
   0x00, 0x00, 0x00, 0xfe, 0xff, 0x8f, 0xf9, 0xff, 0xff, 0xff, 0xff, 0xff,
   0xff, 0xff, 0x00, 0x00, 0x00, 0x00, 0x00, 0xfe, 0x7f, 0x60, 0xf8, 0xff,
   0xff, 0xff, 0xff, 0xff, 0xff, 0x7f, 0x00, 0x00, 0x00, 0x00, 0x00, 0xfe,
   0x3f, 0x00, 0xf0, 0xff, 0xff, 0xff, 0xff, 0xff, 0xff, 0xff, 0x00, 0x00,
   0x00, 0x00, 0x00, 0xff, 0x1f, 0x00, 0xe0, 0xff, 0xff, 0xff, 0xff, 0xff,
   0xff, 0xff, 0x07, 0x00, 0x00, 0x00, 0x00, 0xff, 0x0f, 0x00, 0xe0, 0xff,
   0xff, 0xff, 0xff, 0xff, 0xff, 0x3f, 0x00, 0x00, 0x00, 0x00, 0x00, 0xff,
   0x07, 0x00, 0xc0, 0xff, 0xff, 0xff, 0xff, 0xff, 0xff, 0x0f, 0x00, 0x00,
   0x00, 0x00, 0x00, 0xff, 0x07, 0x00, 0xc0, 0xff, 0xff, 0xff, 0xff, 0xff,
   0xff, 0x3f, 0x00, 0x00, 0x00, 0x00, 0x00, 0xff, 0x03, 0x00, 0x80, 0xff,
   0xff, 0xff, 0xff, 0xff, 0xff, 0xff, 0x00, 0x00, 0x00, 0x00, 0x00, 0xff,
   0x19, 0x00, 0x80, 0xff, 0xff, 0xff, 0xff, 0xff, 0xff, 0xff, 0x00, 0x00,
   0x00, 0x00, 0x80, 0xff, 0xe1, 0xff, 0xff, 0xff, 0xff, 0xff, 0xff, 0xff,
   0xff, 0x3f, 0x00, 0x00, 0x00, 0x00, 0x80, 0xff, 0x80, 0xff, 0xff, 0xff,
   0xff, 0xff, 0xff, 0xff, 0xff, 0x0f, 0x00, 0x00, 0x00, 0x00, 0x80, 0xff,
   0x00, 0xff, 0xff, 0xff, 0xff, 0xff, 0xff, 0xff, 0xff, 0x03, 0x00, 0x00,
   0x00, 0x00, 0x80, 0x7f, 0x00, 0xfe, 0xff, 0xff, 0xff, 0xff, 0xff, 0xff,
   0xff, 0x07, 0x00, 0x00, 0x00, 0x00, 0xc0, 0x3f, 0x00, 0xf8, 0xff, 0xff,
   0xff, 0xff, 0xff, 0xff, 0xff, 0x1f, 0x00, 0x00, 0x00, 0x00, 0xc0, 0x3f,
   0x00, 0xe0, 0x89, 0xff, 0xff, 0xff, 0xff, 0xff, 0xff, 0x7f, 0x00, 0x00,
   0x00, 0x00, 0xc0, 0x1f, 0x00, 0x00, 0x81, 0x1f, 0x00, 0xfe, 0xff, 0xff,
   0xff, 0x3f, 0x00, 0x00, 0x00, 0x00, 0xc0, 0x1f, 0x01, 0x00, 0xff, 0x0f,
   0x00, 0xc0, 0xff, 0x01, 0xfe, 0x0f, 0x00, 0x00, 0x00, 0x00, 0xe0, 0x8f,
   0x01, 0x00, 0x89, 0x1f, 0x00, 0x00, 0x7c, 0x00, 0xff, 0x03, 0x00, 0x00,
   0x00, 0x00, 0xe0, 0xcf, 0x01, 0x00, 0x81, 0x1f, 0x00, 0x00, 0x00, 0xc0,
   0xff, 0x07, 0x00, 0x3f, 0x00, 0x00, 0xf0, 0xe7, 0x01, 0x00, 0x89, 0x1f,
   0x00, 0x00, 0x00, 0xf0, 0xff, 0x3f, 0xc0, 0xff, 0x00, 0x00, 0xf0, 0xf7,
   0x03, 0x00, 0x81, 0x3f, 0x00, 0x00, 0x60, 0xfc, 0xff, 0xff, 0xff, 0xff,
   0x00, 0x00, 0xfc, 0xe7, 0x03, 0x00, 0xff, 0x3f, 0x00, 0x00, 0x80, 0xfc,
   0xff, 0xff, 0xff, 0x7f, 0x00, 0xfc, 0xff, 0xe3, 0x03, 0x00, 0xff, 0x7f,
   0x00, 0x00, 0x80, 0xf0, 0xff, 0xff, 0xff, 0x1f, 0xf8, 0xff, 0xff, 0xe3,
   0x03, 0x00, 0x81, 0xff, 0x00, 0x00, 0xff, 0xff, 0xff, 0xff, 0xff, 0x0f,
   0xff, 0x0f, 0xfc, 0xe3, 0x03, 0x00, 0x81, 0xff, 0xff, 0xff, 0xff, 0xff,
   0xff, 0x07, 0x00, 0x00, 0xf8, 0x0b, 0xf8, 0xfd, 0x03, 0x00, 0x81, 0xff,
   0xff, 0xff, 0xff, 0xff, 0xff, 0x1f, 0x00, 0x00, 0xe0, 0x5b, 0xf8, 0xf1,
   0x07, 0x00, 0x81, 0xff, 0xff, 0xff, 0xff, 0xff, 0xff, 0x7f, 0x00, 0x00,
   0xe0, 0x5f, 0xf8, 0xf9, 0x07, 0x00, 0x81, 0xff, 0xe7, 0xff, 0xff, 0xff,
   0xff, 0x3f, 0x00, 0x00, 0xe0, 0x7f, 0xf8, 0xfd, 0x03, 0x00, 0x80, 0xff,
   0x03, 0x00, 0x00, 0xff, 0xff, 0xff, 0x07, 0x00, 0xe0, 0x5f, 0xf8, 0xe1,
   0x03, 0x00, 0x80, 0xff, 0x01, 0x00, 0x00, 0xc0, 0xff, 0xff, 0x0f, 0x00,
   0xe0, 0x5b, 0xf8, 0xe1, 0x01, 0x00, 0xff, 0xff, 0x00, 0x00, 0x00, 0xf0,
   0xff, 0xff, 0x0f, 0x00, 0xe0, 0x0b, 0xf8, 0xe3, 0x03, 0x00, 0xff, 0xff,
   0x00, 0x00, 0x20, 0xf8, 0xff, 0xff, 0x1f, 0x00, 0xf8, 0x0f, 0xf8, 0xe3,
   0x03, 0x00, 0x80, 0x7f, 0x00, 0x00, 0x60, 0xfe, 0xff, 0x0f, 0x1f, 0x00,
   0xff, 0x0f, 0xfc, 0xf7, 0x03, 0x00, 0x82, 0x3f, 0x00, 0x00, 0xf8, 0xf9,
   0xff, 0x03, 0x3e, 0x00, 0xf0, 0xff, 0xff, 0xf7, 0x01, 0x00, 0x80, 0x3f,
   0x00, 0x00, 0xff, 0xef, 0xff, 0x01, 0x3c, 0x00, 0x00, 0xf0, 0xff, 0xef,
   0x00, 0x00, 0x80, 0x1f, 0x00, 0xe0, 0xff, 0xff, 0xff, 0x0f, 0x7c, 0x00,
   0x00, 0x00, 0xfc, 0xcf, 0x00, 0x00, 0xff, 0x1f, 0x00, 0xfc, 0xff, 0xff,
   0xff, 0x7f, 0x78, 0x00, 0x00, 0x00, 0xf8, 0x9f, 0x01, 0x00, 0x81, 0x1f,
   0xc0, 0xff, 0xff, 0xff, 0xff, 0x7f, 0xf0, 0x00, 0x00, 0x00, 0xf0, 0xbf,
   0x21, 0xf0, 0x81, 0xff, 0xff, 0xff, 0xff, 0xff, 0xff, 0x3f, 0xe0, 0x00,
   0x00, 0x00, 0xe0, 0x3f, 0x60, 0xfc, 0x88, 0xff, 0xff, 0xff, 0xff, 0xff,
   0xff, 0x0f, 0x80, 0x01, 0x00, 0x00, 0xe0, 0x7f, 0x70, 0xff, 0xff, 0xff,
   0xff, 0xff, 0xff, 0xff, 0xff, 0x03, 0x00, 0x00, 0x00, 0x00, 0xc0, 0x7f,
   0xf0, 0xff, 0xff, 0xff, 0xff, 0xff, 0xff, 0xff, 0xff, 0x03, 0x00, 0x00,
   0x00, 0x00, 0xc0, 0xff, 0xf8, 0xff, 0xff, 0xff, 0xff, 0xff, 0xff, 0xff,
   0xff, 0x0f, 0x00, 0x00, 0x00, 0x00, 0xc0, 0xff, 0xf9, 0xff, 0xff, 0xff,
   0xff, 0xff, 0xff, 0xff, 0xff, 0xff, 0x00, 0x00, 0x00, 0x00, 0x80, 0xff,
   0xfd, 0x00, 0xff, 0xff, 0xff, 0xff, 0xff, 0xff, 0xff, 0x7f, 0x00, 0x00,
   0x00, 0x00, 0x80, 0xff, 0x7f, 0x00, 0x00, 0xff, 0xff, 0xff, 0xff, 0xff,
   0xff, 0x3f, 0x07, 0x00, 0x00, 0x00, 0x80, 0xff, 0x3f, 0x00, 0x00, 0xff,
   0xff, 0xff, 0xff, 0xff, 0xff, 0xff, 0x03, 0x00, 0x00, 0x00, 0x80, 0xff,
   0x07, 0x00, 0x80, 0xff, 0xff, 0xff, 0xff, 0xff, 0xff, 0xff, 0x01, 0x00,
   0x00, 0x00, 0x00, 0xff, 0x0f, 0x00, 0x80, 0xff, 0xff, 0xff, 0xff, 0xff,
   0xff, 0xff, 0x00, 0x00, 0x00, 0x00, 0x00, 0xff, 0x1f, 0x00, 0xc0, 0xff,
   0xff, 0xff, 0xff, 0xff, 0xff, 0x7f, 0x00, 0x00, 0x00, 0x00, 0x00, 0xff,
   0x1f, 0x00, 0xe0, 0xff, 0xff, 0xff, 0xff, 0xff, 0xff, 0x3f, 0x00, 0x00,
   0x00, 0x00, 0x00, 0xff, 0x3f, 0x20, 0xe0, 0xff, 0xff, 0xff, 0xff, 0xff,
   0xff, 0x1f, 0x00, 0x00, 0x00, 0x00, 0x00, 0xff, 0x7f, 0xfc, 0xf0, 0xff,
   0xff, 0xff, 0xff, 0xff, 0xff, 0xff, 0x01, 0x00, 0x00, 0x00, 0x00, 0xfe,
   0xff, 0xff, 0xf9, 0xff, 0xff, 0xff, 0xff, 0xff, 0xff, 0xff, 0x01, 0x00,
   0x00, 0x00, 0x00, 0xfe, 0xff, 0x8f, 0xff, 0x07, 0x00, 0x00, 0x00, 0x00,
   0x00, 0x00, 0x00, 0x00, 0x00, 0x00, 0x00, 0xfe, 0xff, 0x01, 0xff, 0x03,
   0x00, 0x00, 0x00, 0x00, 0x00, 0x00, 0x00, 0x00, 0x00, 0x00, 0x00, 0xfe,
   0x3f, 0x80, 0x7f, 0x01, 0x00, 0x00, 0x00, 0x00, 0x00, 0x00, 0x00, 0x00,
   0x00, 0x00, 0x00, 0xe0, 0x00, 0xc0, 0x1b, 0x00, 0x00, 0x00, 0x00, 0x00,
   0x00, 0x00, 0x00, 0x00 };
