#define Coloring03_bmp_width 128
#define Coloring03_bmp_height 64
static unsigned char Coloring03_bmp_bits[] = {
   0x00, 0x00, 0x00, 0x00, 0x00, 0x00, 0x00, 0x00, 0x00, 0x00, 0x00, 0x00,
   0x00, 0x00, 0x00, 0xf8, 0x00, 0x00, 0x00, 0x00, 0x00, 0x00, 0x00, 0x00,
   0x00, 0x00, 0x00, 0x00, 0x00, 0x00, 0x00, 0xf8, 0x00, 0x00, 0x00, 0x00,
   0x00, 0x00, 0x00, 0x00, 0x00, 0x00, 0x00, 0x00, 0x00, 0x00, 0x00, 0xf8,
   0x00, 0x00, 0x00, 0x00, 0x00, 0x00, 0x00, 0x00, 0x00, 0x00, 0x00, 0x00,
   0x00, 0x00, 0x00, 0xf8, 0x00, 0x00, 0x00, 0x00, 0x00, 0x00, 0x00, 0x00,
   0x00, 0x00, 0x00, 0x00, 0x00, 0x00, 0x00, 0xf8, 0x00, 0x00, 0x00, 0x00,
   0x00, 0x00, 0x00, 0x00, 0x00, 0x00, 0x00, 0x00, 0x00, 0x00, 0x00, 0xf8,
   0x00, 0x00, 0x00, 0x00, 0x00, 0x00, 0x00, 0x00, 0x00, 0x00, 0x00, 0x00,
   0x00, 0x00, 0x00, 0xf8, 0x00, 0x00, 0x00, 0x00, 0x00, 0x00, 0x00, 0x00,
   0x00, 0x00, 0x00, 0x00, 0x00, 0x00, 0x04, 0xf8, 0x00, 0x00, 0x00, 0x00,
   0x00, 0x00, 0x00, 0x00, 0x00, 0x00, 0x40, 0x0d, 0x00, 0xa0, 0x1d, 0xf8,
   0x00, 0x00, 0x00, 0x00, 0x00, 0x00, 0x00, 0x00, 0x00, 0x00, 0xf0, 0x3f,
   0x00, 0x3c, 0x10, 0xf8, 0x00, 0x00, 0x00, 0x00, 0x00, 0x00, 0x00, 0x00,
   0x00, 0x00, 0x7c, 0xf3, 0xd0, 0x03, 0x10, 0xf8, 0x00, 0x00, 0x00, 0x00,
   0x00, 0x00, 0x00, 0x00, 0x00, 0x80, 0x21, 0xc3, 0x07, 0x3c, 0x30, 0xf8,
   0x00, 0x00, 0x00, 0x00, 0x00, 0x00, 0x00, 0x00, 0x00, 0xc0, 0x30, 0x82,
   0x03, 0x7e, 0x10, 0xf8, 0x00, 0x00, 0x00, 0x00, 0x00, 0x00, 0x00, 0x00,
   0x00, 0x30, 0xf0, 0x00, 0x0e, 0xe6, 0x1c, 0xf8, 0x00, 0x00, 0x00, 0x00,
   0x00, 0x00, 0x00, 0x00, 0x00, 0x18, 0xa0, 0x07, 0x3c, 0xc6, 0x1e, 0xf8,
   0x00, 0x00, 0x00, 0x00, 0x00, 0x00, 0x00, 0x00, 0x00, 0x06, 0xa0, 0xfc,
   0xff, 0xff, 0x1f, 0xf8, 0x00, 0x00, 0x00, 0x00, 0x00, 0x00, 0x00, 0x00,
   0xc0, 0x03, 0xe0, 0x03, 0x00, 0xcf, 0x07, 0xf8, 0x00, 0x00, 0x00, 0x00,
   0x00, 0x00, 0x00, 0x20, 0xf9, 0x01, 0x60, 0x06, 0x00, 0x00, 0x06, 0xf8,
   0x00, 0x00, 0x00, 0x00, 0x00, 0x00, 0x00, 0x06, 0x3e, 0x00, 0xc0, 0x0c,
   0x00, 0x16, 0x02, 0xf8, 0x00, 0x00, 0x00, 0x00, 0x00, 0x00, 0x00, 0x8e,
   0x1f, 0x00, 0x80, 0x0f, 0x00, 0x3e, 0x02, 0xf8, 0x00, 0x00, 0x00, 0x00,
   0xdc, 0x01, 0xc0, 0xeb, 0x07, 0x00, 0x00, 0x0e, 0x80, 0x3b, 0x01, 0xf8,
   0x00, 0x00, 0x00, 0x00, 0xc6, 0x07, 0x3c, 0x32, 0x01, 0x00, 0x00, 0x18,
   0xf8, 0xe0, 0x03, 0xf8, 0x00, 0x00, 0x00, 0xc0, 0x41, 0x1c, 0x03, 0xe3,
   0x00, 0x00, 0x00, 0xe0, 0xff, 0x1f, 0x03, 0xf8, 0x00, 0x00, 0x00, 0x78,
   0xf8, 0x93, 0x81, 0x31, 0x00, 0x00, 0x00, 0xc0, 0xe1, 0xd8, 0x03, 0xf8,
   0x00, 0x00, 0x00, 0x0e, 0xc4, 0xe7, 0x80, 0x0c, 0x00, 0x00, 0x00, 0x00,
   0x96, 0xe0, 0x03, 0xf8, 0x00, 0x00, 0xfe, 0x07, 0x83, 0x99, 0x40, 0x02,
   0x00, 0x00, 0x00, 0x00, 0x3c, 0x00, 0x06, 0xf8, 0x00, 0xf8, 0x77, 0x0e,
   0x07, 0x7b, 0xa3, 0x01, 0x00, 0x00, 0x00, 0x00, 0x30, 0x00, 0x0c, 0xf8,
   0x00, 0xc7, 0x03, 0x0e, 0x18, 0xce, 0x7b, 0x00, 0x00, 0x00, 0x00, 0x00,
   0x60, 0x00, 0x18, 0xf8, 0xc0, 0xf8, 0xfe, 0x31, 0x30, 0x85, 0x3c, 0x00,
   0x00, 0x00, 0x00, 0xf8, 0xfd, 0x01, 0x10, 0xf8, 0x40, 0xf8, 0x3b, 0x64,
   0xfb, 0xfd, 0x0f, 0x00, 0xa0, 0xaa, 0x6f, 0x2b, 0x15, 0x00, 0x20, 0xf8,
   0xc0, 0xd8, 0x27, 0xce, 0x30, 0xff, 0x03, 0x80, 0x1f, 0x00, 0x00, 0x00,
   0x00, 0x00, 0x20, 0xf8, 0xc0, 0xd9, 0xe7, 0x87, 0x20, 0xf8, 0x00, 0xfe,
   0x00, 0x00, 0x00, 0x00, 0x00, 0x00, 0x60, 0xf8, 0x40, 0x8b, 0xff, 0x8f,
   0x11, 0x10, 0xa4, 0x03, 0x52, 0x55, 0x55, 0x01, 0x00, 0x00, 0x40, 0xf8,
   0xc0, 0xdf, 0x7f, 0x3c, 0x19, 0x70, 0x70, 0x00, 0x00, 0x00, 0x00, 0x00,
   0x00, 0x00, 0x20, 0xf8, 0x80, 0xfb, 0x5f, 0x9d, 0x0b, 0xd0, 0x04, 0x00,
   0x00, 0x00, 0x00, 0x00, 0x00, 0x00, 0x20, 0xf8, 0x00, 0xbe, 0x07, 0xf8,
   0x06, 0xff, 0x03, 0x00, 0x00, 0x00, 0x00, 0x00, 0x00, 0x80, 0x7f, 0xf8,
   0x00, 0x00, 0x00, 0x60, 0xbc, 0x11, 0x9f, 0x24, 0x01, 0x00, 0x44, 0x92,
   0x54, 0xde, 0x20, 0xf8, 0x00, 0x00, 0x00, 0x80, 0x3f, 0x76, 0x8e, 0x07,
   0xfe, 0xff, 0xff, 0x00, 0x00, 0x00, 0x20, 0xf8, 0x00, 0x00, 0x00, 0x00,
   0xe0, 0xfe, 0xbc, 0x3f, 0x00, 0x00, 0x00, 0x00, 0x00, 0x00, 0x20, 0xf8,
   0x00, 0x00, 0x00, 0x00, 0x00, 0xe3, 0x9b, 0xf3, 0xbb, 0x01, 0x00, 0x00,
   0x00, 0x00, 0x60, 0xf8, 0x00, 0x00, 0x00, 0x00, 0x00, 0x9e, 0x3d, 0x0e,
   0xcf, 0xff, 0x01, 0x00, 0x00, 0x00, 0x10, 0xf8, 0x00, 0x00, 0x00, 0x00,
   0x00, 0x30, 0x33, 0x00, 0xa0, 0x8a, 0xaa, 0x57, 0x01, 0x00, 0x18, 0xf8,
   0x00, 0x00, 0x00, 0x00, 0x00, 0xe0, 0x66, 0x00, 0x00, 0xf8, 0x03, 0xf0,
   0xff, 0x01, 0x08, 0xf8, 0x00, 0x00, 0x00, 0x00, 0x00, 0x00, 0x6f, 0x00,
   0x00, 0x00, 0x04, 0x00, 0xff, 0xff, 0x1c, 0xf8, 0x00, 0x00, 0x00, 0x00,
   0x00, 0x00, 0x54, 0x00, 0x00, 0x00, 0x00, 0xc0, 0xc3, 0x01, 0x0f, 0xf8,
   0x00, 0x00, 0x00, 0x00, 0x00, 0x00, 0x76, 0x00, 0x00, 0x00, 0x00, 0xb8,
   0x01, 0x03, 0x0f, 0xf8, 0x00, 0x00, 0x00, 0x00, 0x00, 0x00, 0xff, 0x00,
   0xc0, 0x1f, 0xe0, 0x05, 0x07, 0xc6, 0x0d, 0xf8, 0x00, 0x00, 0x00, 0x00,
   0x00, 0x00, 0x7f, 0x00, 0x00, 0xe0, 0x1f, 0x00, 0xff, 0xff, 0x0c, 0xf8,
   0x00, 0x00, 0x00, 0x00, 0x00, 0x00, 0xff, 0x3b, 0x55, 0xaf, 0x00, 0x00,
   0x53, 0x75, 0x0d, 0xf8, 0x00, 0x00, 0x00, 0x00, 0x00, 0x00, 0x80, 0x1f,
   0x00, 0x00, 0x00, 0x00, 0x03, 0xf8, 0x0f, 0xf8, 0x00, 0x00, 0x00, 0x00,
   0x00, 0x00, 0x00, 0xf8, 0x01, 0x00, 0x00, 0x00, 0x03, 0x18, 0x0f, 0xf8,
   0x00, 0x00, 0x00, 0x00, 0x00, 0x00, 0x00, 0x00, 0x7c, 0x00, 0x00, 0x00,
   0x03, 0x0c, 0x00, 0xf8, 0x00, 0x00, 0x00, 0x00, 0x00, 0x00, 0x00, 0x00,
   0xc0, 0x03, 0x00, 0x00, 0x03, 0x0e, 0x00, 0xf8, 0x00, 0x00, 0x00, 0x00,
   0x00, 0x00, 0x00, 0x00, 0x00, 0xf4, 0x01, 0x00, 0x03, 0x07, 0x00, 0xf8,
   0x00, 0x00, 0x00, 0x00, 0x00, 0x00, 0x00, 0x00, 0x00, 0x00, 0x3e, 0x00,
   0x03, 0x03, 0x00, 0xf8, 0x00, 0x00, 0x00, 0x00, 0x00, 0x00, 0x00, 0x00,
   0x00, 0x00, 0xa0, 0x27, 0xde, 0x01, 0x00, 0xf8, 0x00, 0x00, 0x00, 0x00,
   0x00, 0x00, 0x00, 0x00, 0x00, 0x00, 0x00, 0xc0, 0xff, 0x00, 0x00, 0xf8,
   0x00, 0x00, 0x00, 0x00, 0x00, 0x00, 0x00, 0x00, 0x00, 0x00, 0x00, 0x00,
   0x00, 0x00, 0x00, 0xf8, 0x00, 0x00, 0x00, 0x00, 0x00, 0x00, 0x00, 0x00,
   0x00, 0x00, 0x00, 0x00, 0x00, 0x00, 0x00, 0xf8, 0x00, 0x00, 0x00, 0x00,
   0x00, 0x00, 0x00, 0x00, 0x00, 0x00, 0x00, 0x00, 0x00, 0x00, 0x00, 0xf8,
   0x00, 0x00, 0x00, 0x00, 0x00, 0x00, 0x00, 0x00, 0x00, 0x00, 0x00, 0x00,
   0x00, 0x00, 0x00, 0xf8, 0x00, 0x00, 0x00, 0x00, 0x00, 0x00, 0x00, 0x00,
   0x00, 0x00, 0x00, 0x00, 0x00, 0x00, 0x00, 0xf8, 0x00, 0x00, 0x00, 0x00,
   0x00, 0x00, 0x00, 0x00, 0x00, 0x00, 0x00, 0x00, 0x00, 0x00, 0x00, 0xf8,
   0x00, 0x00, 0x00, 0x00, 0x00, 0x00, 0x00, 0x00, 0x00, 0x00, 0x00, 0x00,
   0x00, 0x00, 0x00, 0xf8 };
