#define jupiter2_width 66
#define jupiter2_height 64
static unsigned char jupiter2_bits[] = {
   0x00, 0x00, 0x00, 0x00, 0x00, 0x00, 0x00, 0x00, 0x00, 0x00, 0x00, 0x00,
   0x00, 0x00, 0x00, 0x00, 0x00, 0x00, 0x00, 0x00, 0x00, 0x00, 0x00, 0x00,
   0x00, 0x00, 0x00, 0x00, 0x00, 0x00, 0xe0, 0xff, 0x00, 0x00, 0x00, 0x00,
   0x00, 0x00, 0x00, 0x1e, 0x00, 0x0f, 0x00, 0x00, 0x00, 0x00, 0x00, 0xc0,
   0x01, 0x00, 0x70, 0x00, 0x00, 0x00, 0x00, 0x00, 0x30, 0x00, 0x00, 0x80,
   0x01, 0x00, 0x00, 0x00, 0x00, 0x0c, 0x00, 0x00, 0x00, 0x02, 0x00, 0x00,
   0x00, 0x00, 0x06, 0x00, 0x00, 0x00, 0x0c, 0x00, 0x00, 0x00, 0x80, 0x01,
   0x00, 0x00, 0x00, 0x10, 0x00, 0x00, 0x00, 0xc0, 0x00, 0xc0, 0x3f, 0x00,
   0x60, 0x00, 0x00, 0x00, 0x60, 0x00, 0x3c, 0x80, 0x03, 0x80, 0x00, 0x00,
   0x00, 0x30, 0x00, 0x03, 0x0e, 0x1c, 0x80, 0x01, 0x00, 0x00, 0x18, 0xc0,
   0x00, 0x11, 0x20, 0x00, 0x02, 0x00, 0x00, 0x0c, 0x60, 0x00, 0x11, 0xc0,
   0x00, 0x02, 0x00, 0x00, 0x04, 0x18, 0x00, 0x11, 0x00, 0x01, 0x04, 0x00,
   0x00, 0x06, 0x0c, 0x00, 0x0e, 0x00, 0x06, 0x08, 0x00, 0x00, 0x03, 0x06,
   0x00, 0x00, 0x00, 0x04, 0x08, 0x00, 0x00, 0x01, 0x03, 0x00, 0x00, 0x00,
   0x08, 0x10, 0x00, 0x80, 0x81, 0x01, 0x00, 0x00, 0x00, 0x10, 0x20, 0x00,
   0x80, 0x80, 0x01, 0x00, 0x00, 0x00, 0x20, 0x20, 0x00, 0x80, 0xc0, 0x00,
   0x00, 0x00, 0x00, 0x40, 0x60, 0x00, 0x40, 0x40, 0x00, 0x00, 0x00, 0x00,
   0x40, 0x40, 0x00, 0x40, 0x60, 0x00, 0x00, 0x00, 0x00, 0x80, 0xc0, 0x00,
   0x20, 0x20, 0x00, 0x00, 0x00, 0x00, 0x80, 0x80, 0x00, 0x20, 0x30, 0x00,
   0x00, 0x00, 0x00, 0x80, 0xc1, 0x00, 0x20, 0x10, 0x00, 0x00, 0x00, 0x00,
   0x00, 0xc1, 0x00, 0x20, 0x10, 0x00, 0x00, 0x00, 0x00, 0x00, 0x81, 0x01,
   0x20, 0x10, 0x00, 0x00, 0x00, 0x00, 0x00, 0x01, 0x01, 0x10, 0x10, 0x00,
   0x00, 0x02, 0x00, 0x00, 0x83, 0x01, 0x10, 0x10, 0x00, 0x00, 0x0f, 0x00,
   0x00, 0x02, 0x01, 0x10, 0x08, 0x00, 0x00, 0x1b, 0x00, 0x00, 0x82, 0x01,
   0x10, 0x08, 0x00, 0x80, 0x21, 0x00, 0x00, 0x83, 0x01, 0x10, 0x08, 0x00,
   0x00, 0x31, 0x00, 0x00, 0x02, 0x01, 0x10, 0x08, 0x00, 0x80, 0x15, 0x00,
   0x00, 0x82, 0x01, 0x10, 0x08, 0x00, 0x00, 0x1f, 0x00, 0x00, 0x03, 0x01,
   0x10, 0x10, 0x00, 0x00, 0x00, 0x00, 0x00, 0x02, 0x01, 0x10, 0x10, 0x00,
   0x00, 0x00, 0x00, 0x00, 0x01, 0x01, 0x20, 0x10, 0x00, 0x00, 0x00, 0x00,
   0x00, 0x81, 0x00, 0x20, 0x10, 0x00, 0x00, 0x00, 0x00, 0x00, 0x81, 0x00,
   0x20, 0x38, 0x00, 0x00, 0x00, 0x00, 0x80, 0x81, 0x00, 0x20, 0x27, 0x00,
   0x00, 0x00, 0x00, 0x80, 0x80, 0x00, 0xc0, 0x20, 0x00, 0x00, 0x00, 0x00,
   0xc0, 0x40, 0x00, 0x40, 0x40, 0x00, 0x00, 0x00, 0x80, 0x40, 0x40, 0x00,
   0x40, 0x40, 0x00, 0x00, 0x00, 0x40, 0x61, 0x40, 0x00, 0x80, 0xe0, 0x70,
   0x00, 0x00, 0xe0, 0x23, 0x20, 0x00, 0x80, 0x30, 0x91, 0x00, 0x00, 0x30,
   0x39, 0x30, 0x00, 0x00, 0x0d, 0xb3, 0x00, 0x00, 0xe0, 0x19, 0x10, 0x00,
   0x00, 0x03, 0x52, 0x00, 0x00, 0xc0, 0x0d, 0x18, 0x00, 0x00, 0x02, 0x0c,
   0x00, 0x00, 0x00, 0x0e, 0x0c, 0x00, 0x00, 0x04, 0x08, 0x00, 0x00, 0x40,
   0x03, 0x0c, 0x00, 0x00, 0x08, 0x30, 0x00, 0x00, 0xc0, 0x01, 0x06, 0x00,
   0x00, 0x08, 0xc0, 0x00, 0x00, 0xf0, 0x00, 0x03, 0x00, 0x00, 0x10, 0x00,
   0x03, 0x00, 0x3c, 0x80, 0x01, 0x00, 0x00, 0x60, 0x00, 0x4e, 0xd0, 0x0f,
   0x40, 0x00, 0x00, 0x00, 0xc0, 0x00, 0xd4, 0xf7, 0x0d, 0x60, 0x00, 0x00,
   0x00, 0x80, 0x00, 0x82, 0x34, 0x08, 0x38, 0x00, 0x00, 0x00, 0x00, 0x03,
   0x82, 0x20, 0x0e, 0x1e, 0x00, 0x00, 0x00, 0x00, 0x0c, 0xac, 0xe9, 0x0f,
   0x1f, 0x00, 0x00, 0x00, 0x00, 0x30, 0xe0, 0xff, 0xc1, 0x03, 0x00, 0x00,
   0x00, 0x00, 0xc0, 0x00, 0x00, 0xf0, 0x01, 0x00, 0x00, 0x00, 0x00, 0x80,
   0x15, 0x80, 0x3e, 0x00, 0x00, 0x00, 0x00, 0x00, 0x00, 0x54, 0xfd, 0x05,
   0x00, 0x00, 0x00, 0x00, 0x00, 0x00, 0x00, 0x15, 0x00, 0x00, 0x00, 0x00 };
