#define bd9ed1f3733c47f0b5fc88909296b821_width 160
#define bd9ed1f3733c47f0b5fc88909296b821_height 80
static char bd9ed1f3733c47f0b5fc88909296b821_bits[] = {
  0x00, 0x00, 0x00, 0x00, 0x00, 0x00, 0x08, 0x00, 0x00, 0x00, 0x00, 0x00, 
  0x00, 0x00, 0x00, 0x00, 0x00, 0x00, 0x00, 0x00, 0x00, 0x00, 0x00, 0x00, 
  0x00, 0x00, 0x1C, 0x00, 0x00, 0x00, 0x00, 0x00, 0x00, 0x00, 0x00, 0x00, 
  0x00, 0x00, 0x00, 0x00, 0x00, 0x00, 0x00, 0x00, 0x00, 0x00, 0x3E, 0x00, 
  0x00, 0x00, 0x00, 0x00, 0x00, 0x30, 0x00, 0x00, 0x00, 0x00, 0x00, 0x00, 
  0x00, 0x00, 0x00, 0x00, 0x00, 0x00, 0x7F, 0x00, 0x00, 0x04, 0x40, 0x00, 
  0x00, 0x78, 0x00, 0x00, 0x00, 0x00, 0x00, 0x00, 0x00, 0x00, 0x00, 0x00, 
  0x00, 0x80, 0xFF, 0x00, 0x00, 0x0C, 0x40, 0x00, 0x00, 0xFC, 0x00, 0x00, 
  0x00, 0x00, 0x00, 0x00, 0x00, 0x00, 0x00, 0x00, 0x00, 0xC0, 0xFF, 0x03, 
  0x00, 0xFC, 0x7F, 0x00, 0x00, 0xFE, 0x01, 0x00, 0x00, 0x00, 0x00, 0x00, 
  0x00, 0x00, 0x00, 0x00, 0x00, 0xC0, 0xFF, 0x07, 0x00, 0xFC, 0x7F, 0x00, 
  0x00, 0xFF, 0x03, 0x00, 0x00, 0x00, 0x00, 0x00, 0x00, 0x00, 0x00, 0x00, 
  0x00, 0xE0, 0xFF, 0x0F, 0x00, 0xFC, 0x7F, 0x00, 0xC0, 0xFF, 0x07, 0x00, 
  0x00, 0x00, 0x00, 0x00, 0x00, 0x00, 0x00, 0x00, 0x00, 0xF0, 0xFF, 0x3F, 
  0x00, 0xFC, 0x7F, 0x00, 0xE0, 0xFF, 0x0F, 0x00, 0x00, 0x00, 0x00, 0x00, 
  0x00, 0x00, 0x00, 0x00, 0x00, 0xF8, 0xFF, 0xFF, 0x00, 0xFC, 0x7F, 0x00, 
  0xF8, 0xFF, 0x0F, 0x00, 0x00, 0x00, 0x00, 0x00, 0x00, 0x00, 0x00, 0x00, 
  0x00, 0xFC, 0x83, 0xFF, 0x03, 0xFC, 0x7F, 0x00, 0xFF, 0xFF, 0x1F, 0x00, 
  0x00, 0x00, 0x00, 0x00, 0x00, 0x00, 0x00, 0x00, 0x00, 0x3C, 0x00, 0xFF, 
  0x1F, 0xFE, 0x7F, 0xE0, 0xFF, 0xFF, 0x3D, 0x00, 0x00, 0x00, 0x00, 0x00, 
  0x00, 0x00, 0x00, 0x00, 0x00, 0x26, 0x00, 0xFE, 0xFF, 0xFF, 0xFF, 0xFF, 
  0xFF, 0xFF, 0x79, 0x00, 0x00, 0x00, 0x00, 0x00, 0x00, 0x00, 0x00, 0x00, 
  0x00, 0x3F, 0x00, 0xFE, 0xFF, 0xFF, 0xFF, 0xFF, 0xFF, 0x7F, 0xF8, 0x00, 
  0x00, 0x00, 0x00, 0x00, 0x00, 0x00, 0x00, 0x00, 0x00, 0x3F, 0x00, 0xFE, 
  0xFF, 0xFF, 0xFF, 0xFF, 0xFF, 0xFF, 0xF0, 0x00, 0x00, 0x00, 0x00, 0x00, 
  0x00, 0x00, 0x00, 0x00, 0x80, 0x1F, 0x00, 0xFC, 0xFF, 0xFF, 0xFF, 0xFF, 
  0xFF, 0xFB, 0xF0, 0x01, 0x00, 0x00, 0x00, 0x00, 0x00, 0x00, 0x00, 0x00, 
  0xC0, 0x0F, 0x00, 0xFC, 0xFF, 0xBF, 0xF7, 0xFF, 0xFF, 0xFB, 0xE1, 0x03, 
  0x00, 0x00, 0x00, 0x00, 0x00, 0x00, 0x00, 0x00, 0xC0, 0x0F, 0x00, 0xF4, 
  0xFF, 0xFF, 0xFF, 0xFF, 0xFF, 0xFB, 0xE1, 0x03, 0x00, 0x00, 0x00, 0x00, 
  0x00, 0x00, 0x00, 0x00, 0xE0, 0x07, 0x00, 0xF4, 0xFF, 0xCF, 0xDF, 0xFF, 
  0xFE, 0xFB, 0xC3, 0x07, 0x00, 0x00, 0x00, 0x00, 0x00, 0x00, 0x00, 0x00, 
  0xE0, 0x07, 0x06, 0xF6, 0xF7, 0x0F, 0xE7, 0xFF, 0xFE, 0xFB, 0x83, 0x07, 
  0x00, 0x00, 0x00, 0x00, 0x00, 0x00, 0x00, 0x00, 0xF0, 0x03, 0x06, 0xB6, 
  0xF7, 0x0F, 0xE0, 0xFF, 0xFE, 0xFB, 0x87, 0x0F, 0x00, 0x00, 0x00, 0x00, 
  0x00, 0x00, 0x00, 0x00, 0xF0, 0x01, 0x0F, 0x06, 0xF0, 0x8F, 0xE7, 0xFF, 
  0xFE, 0xFB, 0x07, 0x1F, 0x00, 0x00, 0x00, 0x00, 0x00, 0x00, 0x00, 0x00, 
  0xF8, 0x81, 0x07, 0x02, 0xF0, 0x1F, 0xE0, 0xFF, 0xF6, 0xF3, 0x0F, 0x1F, 
  0x00, 0x00, 0x00, 0x00, 0x00, 0x00, 0x00, 0x00, 0xF8, 0x80, 0x07, 0x03, 
  0xF0, 0x1F, 0xF3, 0x7F, 0x76, 0xF0, 0x0F, 0x3E, 0x00, 0x00, 0x00, 0x00, 
  0x00, 0x00, 0x00, 0x00, 0xFC, 0xC0, 0x03, 0x03, 0xF8, 0x3F, 0xF0, 0x7F, 
  0x06, 0xF0, 0x1F, 0x3E, 0x00, 0x00, 0x00, 0x00, 0x00, 0x00, 0x00, 0x00, 
  0x7C, 0xE0, 0x83, 0x21, 0xF8, 0x7F, 0xF8, 0x7F, 0x06, 0xF0, 0x1F, 0x7C, 
  0x00, 0x00, 0x00, 0x00, 0x00, 0x00, 0x00, 0x00, 0x7E, 0xE0, 0xC1, 0x71, 
  0xF8, 0xFF, 0xFF, 0x7F, 0x06, 0xF0, 0x1F, 0x7C, 0x00, 0x00, 0x00, 0x00, 
  0x00, 0x00, 0x00, 0x00, 0x3E, 0x70, 0xF0, 0x71, 0xF8, 0xFF, 0xFF, 0x7F, 
  0x06, 0xF0, 0x3E, 0xFC, 0x00, 0x00, 0x00, 0x00, 0x00, 0x00, 0x00, 0x00, 
  0x3F, 0x00, 0xF8, 0x71, 0xF8, 0xFF, 0xBF, 0x7F, 0x06, 0xF0, 0x3C, 0xF8, 
  0x00, 0x00, 0x00, 0x00, 0x00, 0x00, 0x00, 0x00, 0x1F, 0x00, 0xFC, 0x78, 
  0xE8, 0xFF, 0xBF, 0x3F, 0x06, 0x70, 0x78, 0xF8, 0x01, 0x00, 0x00, 0x00, 
  0x00, 0x00, 0x00, 0x80, 0x1F, 0x00, 0xFF, 0x78, 0x0C, 0x80, 0xDF, 0x3E, 
  0x06, 0x70, 0x78, 0xF0, 0x01, 0x00, 0x00, 0x00, 0x00, 0x00, 0x00, 0x80, 
  0x0F, 0x00, 0x7F, 0x78, 0x0C, 0x00, 0xC0, 0x3F, 0x06, 0xE0, 0xF0, 0xF0, 
  0x03, 0x00, 0x00, 0x00, 0x00, 0x00, 0x00, 0xC0, 0x0F, 0x00, 0x7E, 0x7C, 
  0x0C, 0x00, 0x60, 0x3F, 0x86, 0xE0, 0xE0, 0xF0, 0x03, 0x00, 0x00, 0x00, 
  0x00, 0x00, 0x00, 0xC0, 0x07, 0x00, 0x3E, 0x7C, 0x04, 0x00, 0x60, 0x1F, 
  0x86, 0xE1, 0xC0, 0xE0, 0x03, 0x00, 0x00, 0x00, 0x00, 0x00, 0x00, 0xC0, 
  0x07, 0x02, 0x3E, 0x3C, 0x04, 0x00, 0x60, 0x1F, 0x86, 0xE1, 0x80, 0xE1, 
  0x07, 0x00, 0x00, 0x00, 0x00, 0x00, 0x00, 0xE0, 0x03, 0x0F, 0x3E, 0x3E, 
  0x1E, 0x00, 0x30, 0x1F, 0x86, 0xE1, 0x00, 0xC1, 0x07, 0x00, 0x00, 0x00, 
  0x00, 0x00, 0x00, 0xE0, 0x83, 0x0F, 0x1E, 0x3E, 0xFE, 0xC0, 0x3F, 0x0F, 
  0x86, 0xC1, 0x01, 0xC0, 0x0F, 0x00, 0x00, 0x00, 0x00, 0x00, 0x00, 0xF0, 
  0xC1, 0x0F, 0x1E, 0x1F, 0xFE, 0xE0, 0x1F, 0x0F, 0x86, 0xC3, 0x01, 0x80, 
  0x0F, 0x00, 0x00, 0x00, 0x00, 0x00, 0x00, 0xF0, 0xC1, 0x0F, 0x0E, 0x1F, 
  0xFE, 0xF0, 0x1F, 0x0E, 0x86, 0xC3, 0x01, 0x80, 0x0F, 0x00, 0x00, 0x00, 
  0x00, 0x00, 0x00, 0xF0, 0xE0, 0x0F, 0x06, 0x01, 0xFE, 0xF0, 0x0F, 0x06, 
  0x86, 0xC3, 0x01, 0x80, 0x1F, 0x00, 0x00, 0x00, 0x00, 0x00, 0x00, 0xF8, 
  0xE0, 0x0F, 0x06, 0x00, 0xFF, 0xF0, 0x0F, 0x06, 0x86, 0xC3, 0x01, 0x00, 
  0x1F, 0x00, 0x00, 0x00, 0x00, 0x00, 0x00, 0x78, 0xE0, 0x0F, 0x06, 0x00, 
  0x7F, 0xF0, 0x07, 0x06, 0x86, 0x83, 0x03, 0x00, 0x1F, 0x00, 0x00, 0x00, 
  0x00, 0x00, 0x00, 0x7C, 0xF0, 0x0F, 0x03, 0x00, 0x7F, 0xF0, 0x07, 0x02, 
  0x86, 0x87, 0x03, 0x00, 0x3E, 0x00, 0x00, 0x00, 0x00, 0x00, 0x00, 0x7C, 
  0xF0, 0x07, 0x03, 0x00, 0x7F, 0xF0, 0x03, 0x02, 0x86, 0x81, 0x83, 0x00, 
  0x3E, 0x00, 0x00, 0x00, 0x00, 0x00, 0x00, 0x3C, 0xF8, 0x07, 0xC1, 0x01, 
  0x7F, 0xF8, 0x03, 0x00, 0x06, 0x80, 0x87, 0x01, 0x3E, 0x00, 0x00, 0x00, 
  0x00, 0x00, 0x00, 0x3E, 0xF8, 0x87, 0xE1, 0x83, 0x3F, 0xF8, 0x01, 0x00, 
  0x06, 0x00, 0x87, 0x07, 0x7C, 0x00, 0x00, 0x00, 0x00, 0x00, 0x00, 0x1E, 
  0xF8, 0x83, 0xF0, 0x83, 0x3F, 0xF8, 0x01, 0x00, 0x06, 0x03, 0x87, 0x07, 
  0x7C, 0x00, 0x00, 0x00, 0x00, 0x00, 0x00, 0x1E, 0xF8, 0xC3, 0xF0, 0x83, 
  0x3F, 0xF8, 0x00, 0x00, 0x86, 0x07, 0x07, 0x0F, 0x7C, 0x00, 0x00, 0x00, 
  0x00, 0x00, 0x00, 0x1F, 0xFC, 0x41, 0xF8, 0x83, 0x3F, 0xF8, 0x00, 0x18, 
  0xC6, 0x0F, 0x0E, 0x1F, 0x78, 0x00, 0x00, 0x00, 0x00, 0x00, 0x00, 0x0F, 
  0xFC, 0x61, 0xFC, 0xC3, 0x1F, 0x7C, 0x18, 0x08, 0xC6, 0x0F, 0x0E, 0x3F, 
  0xF8, 0x00, 0x00, 0x00, 0x00, 0x00, 0x00, 0x0F, 0xF8, 0x30, 0xFC, 0xC1, 
  0x1F, 0x7C, 0x3C, 0x0C, 0xC6, 0x1F, 0x0E, 0x7F, 0xF0, 0x00, 0x00, 0x00, 
  0x00, 0x00, 0x00, 0x07, 0x78, 0x38, 0xFE, 0xC1, 0x1F, 0x3C, 0x3C, 0x0C, 
  0xC6, 0x1F, 0x0E, 0x7E, 0xF0, 0x00, 0x00, 0x00, 0x00, 0x00, 0x80, 0x07, 
  0x30, 0x38, 0xFE, 0xC1, 0x1F, 0x3C, 0x3E, 0x0C, 0xC6, 0x1F, 0x1E, 0xFE, 
  0xE0, 0x00, 0x00, 0x00, 0x00, 0x00, 0x80, 0x07, 0x00, 0x7C, 0xFF, 0xC1, 
  0x1F, 0x1E, 0x3E, 0x0E, 0xC6, 0x1F, 0x1C, 0xFE, 0xE1, 0x01, 0x00, 0x00, 
  0x00, 0x00, 0x80, 0x13, 0x00, 0xFF, 0xFF, 0xE1, 0x0F, 0x1E, 0x3F, 0x0E, 
  0xC6, 0x1F, 0x1C, 0xFE, 0xE1, 0x01, 0x00, 0x00, 0x00, 0x00, 0xC0, 0x3B, 
  0x80, 0xFF, 0xFF, 0xE0, 0x0F, 0x0E, 0x7F, 0x0E, 0xC6, 0x1F, 0x1C, 0xFC, 
  0xC3, 0x01, 0x00, 0x00, 0x00, 0x00, 0xC0, 0x7F, 0xC0, 0xFF, 0xFF, 0xE0, 
  0xEF, 0x0F, 0x7F, 0x0F, 0xFE, 0x1F, 0x1C, 0xFE, 0xC7, 0x01, 0x00, 0x00, 
  0x00, 0x00, 0xC0, 0xFF, 0xF0, 0xFF, 0xFF, 0xE0, 0xE7, 0x87, 0xFF, 0x0F, 
  0xFE, 0x1F, 0xBC, 0xFF, 0xFF, 0x01, 0x00, 0x00, 0x00, 0x00, 0xE0, 0xFF, 
  0xFF, 0xFF, 0xFF, 0xE0, 0xF7, 0x87, 0xFF, 0x0F, 0xFE, 0x3F, 0xFE, 0xFF, 
  0xFF, 0x03, 0x00, 0x00, 0x00, 0x00, 0xE0, 0xFF, 0xFF, 0xFF, 0x7F, 0xF0, 
  0xFF, 0x87, 0xFF, 0x0F, 0xFE, 0x3F, 0xFF, 0xFF, 0xFF, 0x03, 0x00, 0x00, 
  0x00, 0x00, 0xE0, 0xFF, 0xFF, 0xFF, 0x7F, 0xF0, 0xFF, 0xC7, 0xFF, 0x0F, 
  0xFE, 0x3F, 0xFF, 0xFF, 0xFF, 0x03, 0x00, 0x00, 0x00, 0x00, 0x00, 0xF8, 
  0xFF, 0xFF, 0x7F, 0xF0, 0xFF, 0xCF, 0xFF, 0x0F, 0xFE, 0x3F, 0xFF, 0xFF, 
  0xFF, 0x03, 0x00, 0x00, 0x00, 0x00, 0x00, 0xE0, 0xFF, 0xFF, 0x3F, 0xF0, 
  0xFF, 0xEF, 0xFF, 0x0F, 0xFE, 0x3F, 0xFF, 0xFF, 0xFF, 0x03, 0x00, 0x00, 
  0x00, 0x00, 0x00, 0xC0, 0xFF, 0xFF, 0x3F, 0xF0, 0xFF, 0xFF, 0xFF, 0x0F, 
  0xFE, 0x7F, 0xFF, 0x3F, 0xE0, 0x07, 0x00, 0x00, 0x00, 0x00, 0x00, 0x80, 
  0xFF, 0xFF, 0xFF, 0xFB, 0xFF, 0xFF, 0xFF, 0x0F, 0xFE, 0xFF, 0xFF, 0x0F, 
  0x80, 0x07, 0x00, 0x00, 0x00, 0x00, 0x00, 0x00, 0xFF, 0xFF, 0xFF, 0xFF, 
  0xFF, 0xFF, 0xFF, 0x4F, 0xFE, 0xFF, 0xFF, 0x07, 0x00, 0x07, 0x00, 0x00, 
  0x00, 0x00, 0x00, 0x00, 0xFE, 0xFF, 0xFF, 0xFF, 0xFF, 0xFF, 0xFF, 0xFF, 
  0xFF, 0xFF, 0xFF, 0x03, 0x00, 0x04, 0x00, 0x00, 0x00, 0x00, 0x00, 0x00, 
  0x3E, 0x80, 0xFF, 0xFF, 0xFF, 0xFF, 0xFF, 0xFF, 0xFF, 0xFF, 0xFF, 0x03, 
  0x00, 0x00, 0x00, 0x00, 0x00, 0x00, 0x00, 0x00, 0x0E, 0x00, 0xFF, 0xFF, 
  0xFF, 0xFF, 0xFF, 0xFF, 0xFF, 0xFF, 0x9F, 0x01, 0x00, 0x00, 0x00, 0x00, 
  0x00, 0x00, 0x00, 0x00, 0x04, 0x00, 0xFE, 0x07, 0xFC, 0xFF, 0xFF, 0x1F, 
  0xFE, 0xFF, 0x00, 0x00, 0x00, 0x00, 0x00, 0x00, 0x00, 0x00, 0x00, 0x00, 
  0x00, 0x00, 0xF8, 0x01, 0xF0, 0xFF, 0xFF, 0x01, 0xF0, 0x3F, 0x00, 0x00, 
  0x00, 0x00, 0x00, 0x00, 0x00, 0x00, 0x00, 0x00, 0x00, 0x00, 0x78, 0x00, 
  0xC0, 0xFF, 0x7F, 0x00, 0xC0, 0x0F, 0x00, 0x00, 0x00, 0x00, 0x00, 0x00, 
  0x00, 0x00, 0x00, 0x00, 0x00, 0x00, 0x30, 0x00, 0x80, 0xFF, 0x3F, 0x00, 
  0x00, 0x07, 0x00, 0x00, 0x00, 0x00, 0x00, 0x00, 0x00, 0x00, 0x00, 0x00, 
  0x00, 0x00, 0x00, 0x00, 0x00, 0xFF, 0x0F, 0x00, 0x00, 0x02, 0x00, 0x00, 
  0x00, 0x00, 0x00, 0x00, 0x00, 0x00, 0x00, 0x00, 0x00, 0x00, 0x00, 0x00, 
  0x00, 0xFE, 0x07, 0x00, 0x00, 0x00, 0x00, 0x00, 0x00, 0x00, 0x00, 0x00, 
  0x00, 0x00, 0x00, 0x00, 0x00, 0x00, 0x00, 0x00, 0x00, 0xFC, 0x03, 0x00, 
  0x00, 0x00, 0x00, 0x00, 0x00, 0x00, 0x00, 0x00, 0x00, 0x00, 0x00, 0x00, 
  0x00, 0x00, 0x00, 0x00, 0x00, 0xF8, 0x01, 0x00, 0x00, 0x00, 0x00, 0x00, 
  0x00, 0x00, 0x00, 0x00, 0x00, 0x00, 0x00, 0x00, 0x00, 0x00, 0x00, 0x00, 
  0x00, 0xF0, 0x00, 0x00, 0x00, 0x00, 0x00, 0x00, 0x00, 0x00, 0x00, 0x00, 
  0x00, 0x00, 0x00, 0x00, 0x00, 0x00, 0x00, 0x00, 0x00, 0x60, 0x00, 0x00, 
  0x00, 0x00, 0x00, 0x00, 0x00, 0x00, 0x00, 0x00, 0x00, 0x00, 0x00, 0x00, 
  0x00, 0x00, 0x00, 0x00, 0x00, 0x00, 0x00, 0x00, 0x00, 0x00, 0x00, 0x00, 
  0x00, 0x00, 0x00, 0x00, };
